; generated by Slic3r 1.3.0 on 2020-04-23 at 16:27:15

; external perimeters extrusion width = 0.44mm (3.38mm^3/s)
; perimeters extrusion width = 0.48mm (7.54mm^3/s)
; infill extrusion width = 0.48mm (10.05mm^3/s)
; solid infill extrusion width = 0.48mm (2.51mm^3/s)
; top infill extrusion width = 0.48mm (1.88mm^3/s)

M127
M109 S100 ; set bed temperature and wait for it to be reached
M104 S235 T0 ; set temperature
M103 ; Turn all extruders off, Extruder Retraction
G21 ; set units to mm
G90 ; Use absolute coordinates
(**** begin homing ****)
G162 X Y F2500 ; home XY axes to maximum stops
G161 Z F1100 ; home Z axis to minimum stop
G92 Z-5 ; Set Position Z =-5mm
G1 Z0.0 ; move Z to "0"
G161 Z F100 ; home Z axis to minimum stop slowly
M132 X Y Z A B ; Recall stored home offsets for XYZAB axis
               ; Loads the axis offset of the current home position from the EEPROM and waits for the buffer to empty.
G90 ; Use absolute coordinates
G1 X0 Y0 Z50 F3300.0 ; move to waiting position near center of build plate
; Filament gcode

; Filament gcode

M104 S235 T0 ; set temperature
M6 T0 ; wait for temperature to be reached
G21 ; set units to millimeters
G90 ; use absolute coordinates
M73 P0
G1 Z0.360 F7800.000
G1 E-2.00000 F2400.00000
G1 X4.758 Y-31.045 F7800.000
G1 E0.00000 F2400.00000
G1 F1800
G1 X6.120 Y-31.185 E0.13173
G1 X7.741 Y-31.274 E0.28787
G1 X9.634 Y-31.274 E0.46999
G1 X10.986 Y-31.205 E0.60025
G1 X12.602 Y-31.046 E0.75639
G1 X14.207 Y-30.805 E0.91255
G1 X15.798 Y-30.483 E1.06873
G1 X74.266 Y-16.574 E6.85030
G1 X75.101 Y-16.341 E6.93366
G1 X76.142 Y-15.966 E7.04009
G1 X76.777 Y-15.686 E7.10685
G1 X77.396 Y-15.373 E7.17360
G1 X78.236 Y-14.878 E7.26742
G1 X78.810 Y-14.488 E7.33418
G1 X79.363 Y-14.068 E7.40094
G1 X80.195 Y-13.340 E7.50737
G1 X80.685 Y-12.848 E7.57413
G1 X81.147 Y-12.330 E7.64089
G1 X81.582 Y-11.789 E7.70765
G1 X81.944 Y-11.286 E7.76726
G1 X82.504 Y-10.399 E7.86821
G1 X82.834 Y-9.788 E7.93497
G1 X83.130 Y-9.161 E8.00173
G1 X83.393 Y-8.519 E8.06849
G1 X83.622 Y-7.863 E8.13525
G1 X83.913 Y-6.796 E8.24169
G1 X84.049 Y-6.115 E8.30844
G1 X84.148 Y-5.429 E8.37520
G1 X84.211 Y-4.738 E8.44196
G1 X84.237 Y-4.044 E8.50872
G1 X84.211 Y-3.069 E8.60253
G1 X84.148 Y-2.378 E8.66929
G1 X84.049 Y-1.691 E8.73605
G1 X83.913 Y-1.011 E8.80281
G1 X83.741 Y-0.338 E8.86957
G1 X83.533 Y0.324 E8.93633
G1 X83.291 Y0.974 E9.00309
G1 X82.834 Y1.981 E9.10952
G1 X82.504 Y2.592 E9.17628
G1 X82.142 Y3.184 E9.24304
G1 X81.750 Y3.757 E9.30980
G1 X81.327 Y4.307 E9.37656
G1 X80.685 Y5.041 E9.47037
G1 X79.892 Y5.813 E9.57681
G1 X79.363 Y6.261 E9.64356
G1 X78.810 Y6.681 E9.71032
G1 X78.236 Y7.071 E9.77708
G1 X77.642 Y7.430 E9.84384
G1 X77.030 Y7.756 E9.91060
G1 X76.401 Y8.050 E9.97736
G1 X19.686 Y30.316 E15.83876
G1 X18.406 Y30.757 E15.96898
G1 X16.848 Y31.214 E16.12515
G1 X15.269 Y31.591 E16.28133
G1 X13.406 Y31.928 E16.46346
G1 X12.063 Y32.100 E16.59367
G1 X10.445 Y32.231 E16.74985
G1 X8.822 Y32.279 E16.90602
G1 X6.930 Y32.231 E17.08815
G1 X5.312 Y32.100 E17.24433
G1 X3.969 Y31.928 E17.37454
G1 X2.370 Y31.646 E17.53071
G1 X-78.968 Y15.742 E25.50357
G1 X-80.862 Y14.968 E25.70045
G1 X-82.321 Y13.533 E25.89733
G1 X-83.124 Y11.650 E26.09420
G1 X-83.239 Y10.555 E26.20014
G1 X-83.239 Y-17.009 E28.85177
G1 X-82.843 Y-19.016 E29.04865
G1 X-81.713 Y-20.723 E29.24553
G1 X-80.020 Y-21.873 E29.44240
G1 X-78.508 Y-22.265 E29.59274
G1 X4.698 Y-31.039 E37.64153
G1 X4.826 Y-30.406 F7800.000
G1 F1800
G1 X6.186 Y-30.545 E37.77307
G1 X7.774 Y-30.632 E37.92606
G1 X9.601 Y-30.632 E38.10187
G1 X10.954 Y-30.563 E38.23212
G1 X12.536 Y-30.407 E38.38511
G1 X14.109 Y-30.170 E38.53811
G1 X15.668 Y-29.853 E38.69113
G1 X74.117 Y-15.949 E44.47089
G1 X74.899 Y-15.731 E44.54894
G1 X75.907 Y-15.367 E44.65208
G1 X76.511 Y-15.101 E44.71555
G1 X77.099 Y-14.803 E44.77901
G1 X77.881 Y-14.342 E44.86625
G1 X78.427 Y-13.972 E44.92971
G1 X78.952 Y-13.573 E44.99318
G1 X79.456 Y-13.147 E45.05665
G1 X79.936 Y-12.695 E45.12012
G1 X80.664 Y-11.907 E45.22326
G1 X81.076 Y-11.392 E45.28673
G1 X81.461 Y-10.856 E45.35019
G1 X81.816 Y-10.300 E45.41366
G1 X82.142 Y-9.726 E45.47713
G1 X82.436 Y-9.136 E45.54060
G1 X82.699 Y-8.531 E45.60406
G1 X83.006 Y-7.678 E45.69130
G1 X83.190 Y-7.044 E45.75477
G1 X83.341 Y-6.402 E45.81823
G1 X83.511 Y-5.343 E45.92137
G1 X83.570 Y-4.686 E45.98484
G1 X83.594 Y-4.027 E46.04831
G1 X83.570 Y-3.120 E46.13554
G1 X83.511 Y-2.463 E46.19901
G1 X83.417 Y-1.810 E46.26248
G1 X83.288 Y-1.163 E46.32594
G1 X83.125 Y-0.524 E46.38941
G1 X82.929 Y0.106 E46.45288
G1 X82.699 Y0.724 E46.51635
G1 X82.256 Y1.700 E46.61948
G1 X81.942 Y2.281 E46.68295
G1 X81.597 Y2.843 E46.74642
G1 X81.224 Y3.387 E46.80989
G1 X80.821 Y3.910 E46.87336
G1 X80.392 Y4.411 E46.93683
G1 X79.988 Y4.835 E46.99315
G1 X79.270 Y5.503 E47.08752
G1 X78.758 Y5.919 E47.15099
G1 X78.225 Y6.307 E47.21445
G1 X77.316 Y6.876 E47.31759
G1 X76.733 Y7.186 E47.38106
G1 X76.135 Y7.465 E47.44453
G1 X19.476 Y29.709 E53.30013
G1 X18.196 Y30.150 E53.43034
G1 X16.670 Y30.597 E53.58335
G1 X15.122 Y30.965 E53.73638
G1 X13.324 Y31.290 E53.91219
G1 X11.746 Y31.487 E54.06521
G1 X10.396 Y31.590 E54.19542
G1 X8.806 Y31.637 E54.34844
G1 X6.979 Y31.590 E54.52426
G1 X5.393 Y31.462 E54.67728
G1 X4.051 Y31.290 E54.80749
G1 X2.485 Y31.013 E54.96050
G1 X-78.844 Y15.112 E62.93247
G1 X-80.609 Y14.363 E63.11687
G1 X-81.921 Y12.966 E63.30127
G1 X-82.596 Y10.555 E63.54211
G1 X-82.596 Y-17.009 E66.19374
G1 X-82.200 Y-18.884 E66.37814
G1 X-81.081 Y-20.440 E66.56254
G1 X-79.428 Y-21.411 E66.74694
G1 X-78.440 Y-21.626 E66.84419
G1 X4.766 Y-30.399 E74.89298
G1 E72.89298 F2400.00000
G1 X5.902 Y-6.627 F7800.000
G1 E74.89298 F2400.00000
G1 F1800
G1 X6.675 Y-6.883 E74.97129
G1 X7.471 Y-7.055 E75.04960
G1 X8.280 Y-7.141 E75.12792
G1 X9.094 Y-7.141 E75.20623
G1 X9.904 Y-7.055 E75.28454
G1 X10.700 Y-6.883 E75.36286
G1 X11.472 Y-6.627 E75.44117
G1 X12.214 Y-6.291 E75.51948
G1 X12.915 Y-5.877 E75.59780
G1 X13.569 Y-5.392 E75.67611
G1 X14.167 Y-4.840 E75.75442
G1 X14.703 Y-4.227 E75.83274
G1 X15.171 Y-3.561 E75.91105
G1 X15.565 Y-2.849 E75.98936
G1 X15.874 Y-2.117 E76.06578
G1 X16.116 Y-1.322 E76.14576
G1 X16.268 Y-0.519 E76.22429
G1 X16.333 Y0.292 E76.30261
G1 X16.311 Y1.106 E76.38092
G1 X16.203 Y1.913 E76.45923
G1 X16.010 Y2.704 E76.53754
G1 X15.733 Y3.469 E76.61586
G1 X15.377 Y4.201 E76.69417
G1 X14.946 Y4.892 E76.77248
G1 X14.443 Y5.532 E76.85080
G1 X13.875 Y6.115 E76.92911
G1 X13.248 Y6.635 E77.00742
G1 X12.586 Y7.074 E77.08385
G1 X11.850 Y7.459 E77.16382
G1 X11.089 Y7.757 E77.24235
G1 X10.304 Y7.971 E77.32067
G1 X9.500 Y8.100 E77.39898
G1 X8.687 Y8.144 E77.47729
G1 X7.875 Y8.100 E77.55561
G1 X7.071 Y7.971 E77.63392
G1 X6.285 Y7.757 E77.71223
G1 X5.527 Y7.460 E77.79055
G1 X4.805 Y7.085 E77.86886
G1 X4.127 Y6.635 E77.94717
G1 X3.500 Y6.115 E78.02548
G1 X2.932 Y5.532 E78.10380
G1 X2.429 Y4.892 E78.18211
G1 X1.997 Y4.201 E78.26042
G1 X1.650 Y3.487 E78.33685
G1 X1.366 Y2.706 E78.41682
G1 X1.172 Y1.913 E78.49535
G1 X1.064 Y1.106 E78.57367
G1 X1.042 Y0.292 E78.65198
G1 X1.107 Y-0.519 E78.73029
G1 X1.258 Y-1.319 E78.80861
G1 X1.493 Y-2.099 E78.88692
G1 X1.810 Y-2.849 E78.96523
G1 X2.204 Y-3.561 E79.04355
G1 X2.672 Y-4.227 E79.12186
G1 X3.195 Y-4.825 E79.19828
G1 X3.804 Y-5.390 E79.27825
G1 X4.460 Y-5.877 E79.35679
G1 X5.161 Y-6.291 E79.43510
G1 X5.848 Y-6.602 E79.50764
G1 X6.137 Y-6.028 F7800.000
G1 F1800
G1 X6.845 Y-6.262 E79.57937
G1 X7.573 Y-6.419 E79.65109
G1 X8.315 Y-6.499 E79.72281
G1 X9.060 Y-6.499 E79.79453
G1 X9.802 Y-6.419 E79.86625
G1 X10.530 Y-6.262 E79.93798
G1 X11.238 Y-6.028 E80.00970
G1 X11.917 Y-5.719 E80.08142
G1 X12.559 Y-5.341 E80.15314
G1 X13.158 Y-4.896 E80.22486
G1 X13.706 Y-4.391 E80.29659
G1 X14.197 Y-3.830 E80.36831
G1 X14.625 Y-3.219 E80.44003
G1 X14.986 Y-2.567 E80.51175
G1 X15.269 Y-1.898 E80.58167
G1 X15.491 Y-1.168 E80.65505
G1 X15.630 Y-0.434 E80.72691
G1 X15.689 Y0.309 E80.79863
G1 X15.669 Y1.055 E80.87035
G1 X15.570 Y1.793 E80.94208
G1 X15.393 Y2.518 E81.01380
G1 X15.140 Y3.219 E81.08552
G1 X14.814 Y3.890 E81.15724
G1 X14.419 Y4.522 E81.22897
G1 X13.959 Y5.108 E81.30069
G1 X13.438 Y5.642 E81.37241
G1 X12.865 Y6.118 E81.44413
G1 X12.259 Y6.520 E81.51405
G1 X11.583 Y6.873 E81.58743
G1 X10.887 Y7.145 E81.65929
G1 X10.168 Y7.342 E81.73101
G1 X9.432 Y7.460 E81.80273
G1 X8.687 Y7.500 E81.87446
G1 X7.943 Y7.460 E81.94618
G1 X7.207 Y7.342 E82.01790
G1 X6.488 Y7.145 E82.08962
G1 X5.793 Y6.874 E82.16134
G1 X5.132 Y6.530 E82.23307
G1 X4.510 Y6.118 E82.30479
G1 X3.936 Y5.642 E82.37651
G1 X3.416 Y5.108 E82.44823
G1 X2.956 Y4.522 E82.51995
G1 X2.560 Y3.890 E82.59168
G1 X2.243 Y3.236 E82.66160
G1 X1.982 Y2.519 E82.73498
G1 X1.805 Y1.793 E82.80683
G1 X1.706 Y1.055 E82.87856
G1 X1.686 Y0.309 E82.95028
G1 X1.745 Y-0.434 E83.02200
G1 X1.883 Y-1.167 E83.09372
G1 X2.099 Y-1.880 E83.16544
G1 X2.389 Y-2.567 E83.23717
G1 X2.750 Y-3.219 E83.30889
G1 X3.178 Y-3.830 E83.38061
G1 X3.657 Y-4.377 E83.45053
G1 X4.216 Y-4.896 E83.52391
G1 X4.816 Y-5.341 E83.59577
G1 X5.458 Y-5.719 E83.66749
G1 X6.082 Y-6.003 E83.73344
G1 X6.371 Y-5.428 F7800.000
G1 F1800
G1 X7.014 Y-5.641 E83.79857
G1 X7.676 Y-5.784 E83.86370
G1 X8.349 Y-5.856 E83.92883
G1 X9.026 Y-5.856 E83.99397
G1 X9.699 Y-5.784 E84.05910
G1 X10.361 Y-5.641 E84.12423
G1 X11.004 Y-5.428 E84.18936
G1 X11.620 Y-5.148 E84.25449
G1 X12.204 Y-4.805 E84.31962
G1 X12.747 Y-4.401 E84.38475
G1 X13.244 Y-3.942 E84.44988
G1 X13.690 Y-3.432 E84.51501
G1 X14.079 Y-2.878 E84.58015
G1 X14.408 Y-2.286 E84.64528
G1 X14.664 Y-1.678 E84.70869
G1 X14.866 Y-1.014 E84.77548
G1 X14.992 Y-0.349 E84.84066
G1 X15.046 Y0.326 E84.90579
G1 X15.028 Y1.003 E84.97092
G1 X14.938 Y1.674 E85.03605
G1 X14.777 Y2.332 E85.10119
G1 X14.547 Y2.969 E85.16632
G1 X14.251 Y3.578 E85.23145
G1 X13.892 Y4.152 E85.29658
G1 X13.474 Y4.684 E85.36171
G1 X13.002 Y5.169 E85.42684
G1 X12.481 Y5.601 E85.49197
G1 X11.931 Y5.966 E85.55539
G1 X11.316 Y6.288 E85.62218
G1 X10.685 Y6.534 E85.68736
G1 X10.032 Y6.712 E85.75249
G1 X9.364 Y6.820 E85.81762
G1 X8.687 Y6.856 E85.88275
G1 X8.011 Y6.820 E85.94788
G1 X7.343 Y6.712 E86.01301
G1 X6.690 Y6.534 E86.07814
G1 X6.059 Y6.288 E86.14327
G1 X5.458 Y5.976 E86.20841
G1 X4.894 Y5.601 E86.27354
G1 X4.373 Y5.169 E86.33867
G1 X3.901 Y4.684 E86.40380
G1 X3.483 Y4.152 E86.46893
G1 X3.124 Y3.578 E86.53406
G1 X2.835 Y2.985 E86.59748
G1 X2.598 Y2.332 E86.66427
G1 X2.437 Y1.674 E86.72945
G1 X2.347 Y1.003 E86.79458
G1 X2.329 Y0.326 E86.85971
G1 X2.383 Y-0.349 E86.92484
G1 X2.509 Y-1.014 E86.98997
G1 X2.704 Y-1.662 E87.05510
G1 X2.967 Y-2.286 E87.12023
G1 X3.295 Y-2.878 E87.18536
G1 X3.685 Y-3.432 E87.25049
G1 X4.119 Y-3.928 E87.31391
G1 X4.627 Y-4.401 E87.38070
G1 X5.171 Y-4.805 E87.44588
G1 X5.755 Y-5.148 E87.51101
G1 X6.317 Y-5.403 E87.57037
G1 X6.371 Y-5.428 F7800.000
G1 E85.57037 F2400.00000
G1 X-0.099 Y-22.745 F7800.000
G1 E87.57037 F2400.00000
G1 F1800
G1 X0.586 Y-23.001 E87.64070
G1 X1.796 Y-23.384 E87.76282
G1 X3.024 Y-23.705 E87.88495
G1 X4.267 Y-23.962 E88.00707
G1 X5.522 Y-24.156 E88.12919
G1 X6.785 Y-24.285 E88.25132
G1 X8.053 Y-24.350 E88.37344
G1 X9.322 Y-24.350 E88.49556
G1 X10.574 Y-24.286 E88.61617
G1 X11.853 Y-24.156 E88.73985
G1 X13.107 Y-23.962 E88.86193
G1 X14.351 Y-23.705 E88.98405
G1 X15.579 Y-23.384 E89.10618
G1 X16.789 Y-23.001 E89.22830
G1 X17.978 Y-22.556 E89.35042
G1 X19.143 Y-22.052 E89.47254
G1 X20.281 Y-21.489 E89.59467
G1 X21.388 Y-20.868 E89.71679
G1 X22.463 Y-20.192 E89.83891
G1 X23.501 Y-19.461 E89.96104
G1 X24.501 Y-18.679 E90.08316
G1 X25.459 Y-17.846 E90.20528
G1 X26.374 Y-16.966 E90.32741
G1 X27.242 Y-16.040 E90.44953
G1 X28.062 Y-15.071 E90.57165
G1 X28.832 Y-14.062 E90.69377
G1 X29.549 Y-13.014 E90.81590
G1 X30.212 Y-11.931 E90.93802
G1 X30.818 Y-10.816 E91.06014
G1 X31.367 Y-9.671 E91.18227
G1 X31.856 Y-8.500 E91.30439
G1 X32.285 Y-7.305 E91.42651
G1 X32.653 Y-6.090 E91.54864
G1 X32.958 Y-4.858 E91.67076
G1 X33.200 Y-3.612 E91.79288
G1 X33.377 Y-2.355 E91.91500
G1 X33.491 Y-1.090 E92.03713
G1 X33.539 Y0.178 E92.15925
G1 X33.523 Y1.448 E92.28137
G1 X33.442 Y2.715 E92.40350
G1 X33.297 Y3.976 E92.52562
G1 X33.087 Y5.228 E92.64774
G1 X32.817 Y6.452 E92.76835
G1 X32.477 Y7.692 E92.89203
G1 X32.079 Y8.897 E93.01411
G1 X31.619 Y10.080 E93.13623
G1 X31.100 Y11.239 E93.25836
G1 X30.522 Y12.369 E93.38048
G1 X29.887 Y13.468 E93.50260
G1 X29.197 Y14.534 E93.62473
G1 X28.454 Y15.563 E93.74685
G1 X27.659 Y16.552 E93.86897
G1 X26.814 Y17.500 E93.99110
G1 X25.922 Y18.404 E94.11322
G1 X24.985 Y19.260 E94.23534
G1 X24.006 Y20.068 E94.35746
G1 X22.986 Y20.824 E94.47959
G1 X21.930 Y21.528 E94.60171
G1 X20.839 Y22.177 E94.72383
G1 X19.716 Y22.769 E94.84596
G1 X18.564 Y23.303 E94.96808
G1 X17.387 Y23.778 E95.09020
G1 X16.186 Y24.191 E95.21232
G1 X14.967 Y24.543 E95.33445
G1 X13.731 Y24.833 E95.45657
G1 X12.481 Y25.058 E95.57869
G1 X11.222 Y25.220 E95.70082
G1 X9.957 Y25.317 E95.82294
G1 X8.687 Y25.350 E95.94506
G1 X7.418 Y25.317 E96.06719
G1 X6.153 Y25.220 E96.18931
G1 X4.894 Y25.058 E96.31143
G1 X3.644 Y24.833 E96.43355
G1 X2.408 Y24.543 E96.55568
G1 X1.189 Y24.191 E96.67780
G1 X-0.012 Y23.778 E96.79992
G1 X-1.189 Y23.303 E96.92205
G1 X-2.341 Y22.769 E97.04417
G1 X-3.464 Y22.177 E97.16629
G1 X-4.555 Y21.528 E97.28842
G1 X-5.611 Y20.824 E97.41054
G1 X-6.631 Y20.068 E97.53266
G1 X-7.610 Y19.260 E97.65479
G1 X-8.535 Y18.414 E97.77539
G1 X-9.439 Y17.500 E97.89908
G1 X-10.284 Y16.552 E98.02115
G1 X-11.079 Y15.563 E98.14328
G1 X-11.822 Y14.534 E98.26540
G1 X-12.512 Y13.468 E98.38752
G1 X-13.147 Y12.369 E98.50964
G1 X-13.725 Y11.239 E98.63177
G1 X-14.244 Y10.080 E98.75389
G1 X-14.704 Y8.897 E98.87601
G1 X-15.102 Y7.691 E98.99814
G1 X-15.438 Y6.467 E99.12026
G1 X-15.712 Y5.228 E99.24238
G1 X-15.922 Y3.976 E99.36450
G1 X-16.067 Y2.715 E99.48663
G1 X-16.148 Y1.448 E99.60875
G1 X-16.164 Y0.178 E99.73087
G1 X-16.116 Y-1.090 E99.85300
G1 X-16.003 Y-2.355 E99.97512
G1 X-15.825 Y-3.612 E100.09724
G1 X-15.583 Y-4.858 E100.21937
G1 X-15.278 Y-6.090 E100.34149
G1 X-14.911 Y-7.305 E100.46361
G1 X-14.487 Y-8.485 E100.58422
G1 X-13.992 Y-9.672 E100.70790
G1 X-13.443 Y-10.816 E100.82998
G1 X-12.837 Y-11.931 E100.95210
G1 X-12.174 Y-13.014 E101.07423
G1 X-11.457 Y-14.062 E101.19635
G1 X-10.687 Y-15.071 E101.31847
G1 X-9.867 Y-16.040 E101.44059
G1 X-8.999 Y-16.966 E101.56272
G1 X-8.084 Y-17.846 E101.68484
G1 X-7.126 Y-18.679 E101.80696
G1 X-6.126 Y-19.461 E101.92909
G1 X-5.088 Y-20.192 E102.05121
G1 X-4.013 Y-20.868 E102.17333
G1 X-2.906 Y-21.489 E102.29546
G1 X-1.768 Y-22.052 E102.41758
G1 X-0.603 Y-22.556 E102.53970
G1 X-0.155 Y-22.724 E102.58572
G1 X-0.324 Y-23.347 F7800.000
G1 F1800
G1 X0.376 Y-23.609 E102.65763
G1 X1.618 Y-24.002 E102.78291
G1 X2.878 Y-24.331 E102.90820
G1 X4.153 Y-24.595 E103.03348
G1 X5.440 Y-24.794 E103.15876
G1 X6.736 Y-24.926 E103.28404
G1 X8.036 Y-24.993 E103.40933
G1 X9.339 Y-24.993 E103.53461
G1 X10.623 Y-24.927 E103.65836
G1 X11.935 Y-24.794 E103.78520
G1 X13.222 Y-24.595 E103.91045
G1 X14.497 Y-24.331 E104.03574
G1 X15.757 Y-24.002 E104.16102
G1 X16.999 Y-23.609 E104.28630
G1 X18.219 Y-23.153 E104.41158
G1 X19.414 Y-22.635 E104.53686
G1 X20.581 Y-22.057 E104.66215
G1 X21.717 Y-21.421 E104.78743
G1 X22.819 Y-20.727 E104.91271
G1 X23.884 Y-19.978 E105.03799
G1 X24.910 Y-19.175 E105.16328
G1 X25.893 Y-18.321 E105.28856
G1 X26.831 Y-17.418 E105.41384
G1 X27.722 Y-16.468 E105.53912
G1 X28.564 Y-15.474 E105.66440
G1 X29.353 Y-14.438 E105.78969
G1 X30.089 Y-13.364 E105.91497
G1 X30.768 Y-12.253 E106.04025
G1 X31.391 Y-11.109 E106.16553
G1 X31.954 Y-9.934 E106.29082
G1 X32.456 Y-8.733 E106.41610
G1 X32.896 Y-7.507 E106.54138
G1 X33.273 Y-6.261 E106.66666
G1 X33.586 Y-4.996 E106.79194
G1 X33.834 Y-3.718 E106.91723
G1 X34.016 Y-2.428 E107.04251
G1 X34.132 Y-1.131 E107.16779
G1 X34.182 Y0.170 E107.29307
G1 X34.166 Y1.472 E107.41836
G1 X34.083 Y2.772 E107.54364
G1 X33.933 Y4.066 E107.66892
G1 X33.718 Y5.350 E107.79420
G1 X33.441 Y6.606 E107.91795
G1 X33.092 Y7.878 E108.04479
G1 X32.684 Y9.114 E108.17005
G1 X32.212 Y10.328 E108.29533
G1 X31.680 Y11.516 E108.42061
G1 X31.087 Y12.676 E108.54589
G1 X30.436 Y13.804 E108.67118
G1 X29.728 Y14.897 E108.79646
G1 X28.965 Y15.953 E108.92174
