; generated by Slic3r 1.3.0 on 2020-04-17 at 16:59:48

; external perimeters extrusion width = 0.44mm (3.38mm^3/s)
; perimeters extrusion width = 0.48mm (7.54mm^3/s)
; infill extrusion width = 0.48mm (10.05mm^3/s)
; solid infill extrusion width = 0.48mm (2.51mm^3/s)
; top infill extrusion width = 0.48mm (1.88mm^3/s)

M127
M109 S100 ; set bed temperature and wait for it to be reached
M104 S235 T0 ; set temperature
M103 ; Turn all extruders off, Extruder Retraction
G21 ; set units to mm
G90 ; Use absolute coordinates
(**** begin homing ****)
G162 X Y F2500 ; home XY axes to maximum stops
G161 Z F1100 ; home Z axis to minimum stop
G92 Z-5 ; Set Position Z =-5mm
G1 Z0.0 ; move Z to "0"
G161 Z F100 ; home Z axis to minimum stop slowly
M132 X Y Z A B ; Recall stored home offsets for XYZAB axis
               ; Loads the axis offset of the current home position from the EEPROM and waits for the buffer to empty.
G90 ; Use absolute coordinates
G1 X0 Y0 Z50 F3300.0 ; move to waiting position near center of build plate
; Filament gcode

; Filament gcode

M104 S235 T0 ; set temperature
M6 T0 ; wait for temperature to be reached
G21 ; set units to millimeters
G90 ; use absolute coordinates
M73 P0
G1 Z0.330 F7800.000
G1 E-2.00000 F2400.00000
G1 X-46.829 Y-14.678 F7800.000
G1 E0.00000 F2400.00000
G1 F1800
G1 X47.829 Y-14.678 E7.65158
G1 X50.183 Y-14.281 E7.84461
G1 X52.278 Y-13.133 E8.03765
G1 X53.879 Y-11.362 E8.23069
G1 X54.930 Y-8.548 E8.47352
G1 X55.261 Y-6.262 E8.66021
G1 X55.496 Y-3.964 E8.84692
G1 X55.635 Y-1.659 E9.03362
G1 X55.677 Y0.650 E9.22032
G1 X55.635 Y2.659 E9.38275
G1 X55.496 Y4.964 E9.56943
G1 X55.261 Y7.262 E9.75614
G1 X54.930 Y9.548 E9.94283
G1 X54.193 Y11.820 E10.13587
G1 X52.752 Y13.724 E10.32890
G1 X50.766 Y15.050 E10.52194
G1 X47.829 Y15.678 E10.76477
G1 X-46.829 Y15.678 E18.41635
G1 X-49.183 Y15.281 E18.60939
G1 X-51.278 Y14.133 E18.80242
G1 X-52.879 Y12.362 E18.99546
G1 X-53.930 Y9.548 E19.23829
G1 X-54.223 Y7.560 E19.40071
G1 X-54.471 Y5.264 E19.58740
G1 X-54.622 Y2.959 E19.77411
G1 X-54.677 Y0.350 E19.98509
G1 X-54.635 Y-1.659 E20.14750
G1 X-54.496 Y-3.964 E20.33420
G1 X-54.261 Y-6.262 E20.52090
G1 X-53.930 Y-8.548 E20.70760
G1 X-53.193 Y-10.820 E20.90064
G1 X-51.752 Y-12.724 E21.09367
G1 X-49.766 Y-14.050 E21.28671
G1 X-46.887 Y-14.666 E21.52469
G1 X-46.829 Y-14.089 F7800.000
G1 F1800
G1 X47.829 Y-14.089 E29.17627
G1 X50.081 Y-13.692 E29.36116
G1 X52.062 Y-12.549 E29.54604
G1 X53.533 Y-10.798 E29.73093
G1 X54.347 Y-8.462 E29.93087
G1 X54.641 Y-6.474 E30.09329
G1 X54.885 Y-4.202 E30.27799
G1 X55.034 Y-1.922 E30.46270
G1 X55.088 Y0.362 E30.64741
G1 X55.046 Y2.647 E30.83213
G1 X54.908 Y4.928 E31.01682
G1 X54.675 Y7.201 E31.20154
G1 X54.347 Y9.462 E31.38623
G1 X53.626 Y11.632 E31.57112
G1 X52.206 Y13.425 E31.75600
G1 X50.258 Y14.625 E31.94089
G1 X47.829 Y15.089 E32.14084
G1 X-46.829 Y15.089 E39.79242
G1 X-49.081 Y14.692 E39.97730
G1 X-51.062 Y13.549 E40.16219
G1 X-52.533 Y11.798 E40.34707
G1 X-53.347 Y9.462 E40.54702
G1 X-53.641 Y7.474 E40.70944
G1 X-53.885 Y5.202 E40.89414
G1 X-54.034 Y2.922 E41.07885
G1 X-54.088 Y0.362 E41.28584
G1 X-54.046 Y-1.647 E41.44826
G1 X-53.908 Y-3.928 E41.63296
G1 X-53.675 Y-6.201 E41.81767
G1 X-53.347 Y-8.462 E42.00238
G1 X-52.626 Y-10.632 E42.18726
G1 X-51.206 Y-12.425 E42.37215
G1 X-49.258 Y-13.625 E42.55703
G1 X-46.888 Y-14.078 E42.75213
G1 E40.75213 F2400.00000
G1 X-45.527 Y-5.992 F7800.000
G1 E42.75213 F2400.00000
G1 F1800
G1 X46.527 Y-5.992 E50.19320
G1 X46.601 Y-5.485 E50.23460
G1 X46.829 Y-3.385 E50.40530
G1 X46.951 Y-1.446 E50.56242
G1 X46.991 Y0.500 E50.71973
G1 X46.951 Y2.446 E50.87704
G1 X46.828 Y4.388 E51.03435
G1 X46.625 Y6.323 E51.19166
G1 X46.527 Y6.992 E51.24627
G1 X-45.527 Y6.992 E58.68733
G1 X-45.625 Y6.323 E58.74194
G1 X-45.828 Y4.388 E58.89925
G1 X-45.951 Y2.446 E59.05656
G1 X-45.991 Y0.500 E59.21387
G1 X-45.951 Y-1.446 E59.37118
G1 X-45.828 Y-3.388 E59.52849
G1 X-45.625 Y-5.323 E59.68580
G1 X-45.535 Y-5.932 E59.73556
G1 X-46.035 Y-6.581 F7800.000
G1 F1800
G1 X47.035 Y-6.581 E67.25886
G1 X47.186 Y-5.560 E67.34230
G1 X47.416 Y-3.436 E67.51499
G1 X47.539 Y-1.470 E67.67417
G1 X47.581 Y0.500 E67.83348
G1 X47.539 Y2.470 E67.99278
G1 X47.416 Y4.437 E68.15209
G1 X47.210 Y6.397 E68.31139
G1 X47.035 Y7.581 E68.40811
G1 X-46.035 Y7.581 E75.93141
G1 X-46.210 Y6.397 E76.02812
G1 X-46.416 Y4.437 E76.18743
G1 X-46.539 Y2.470 E76.34673
G1 X-46.581 Y0.500 E76.50604
G1 X-46.539 Y-1.470 E76.66534
G1 X-46.416 Y-3.437 E76.82465
G1 X-46.210 Y-5.397 E76.98395
G1 X-46.044 Y-6.521 E77.07582
G1 X-46.544 Y-7.170 F7800.000
G1 F1800
G1 X47.544 Y-7.170 E84.68134
G1 X47.770 Y-5.634 E84.80681
G1 X48.003 Y-3.486 E84.98150
G1 X48.128 Y-1.495 E85.14276
G1 X48.170 Y0.500 E85.30406
G1 X48.128 Y2.495 E85.46535
G1 X48.003 Y4.486 E85.62665
G1 X47.794 Y6.471 E85.78795
G1 X47.544 Y8.170 E85.92678
G1 X-46.544 Y8.170 E93.53230
G1 X-46.794 Y6.471 E93.67113
G1 X-47.003 Y4.486 E93.83243
G1 X-47.128 Y2.495 E93.99373
G1 X-47.170 Y0.500 E94.15503
G1 X-47.128 Y-1.495 E94.31633
G1 X-47.003 Y-3.486 E94.47762
G1 X-46.794 Y-5.471 E94.63892
G1 X-46.553 Y-7.111 E94.77290
G1 X-46.206 Y-6.956 F7800.000
G1 E92.77290 F2400.00000
G1 X-45.247 Y-5.173 F7800.000
G1 E94.77290 F2400.00000
G1 F1800
G1 X-44.789 Y-5.632 E94.82547
G1 X-43.953 Y-5.632 E94.89329
G1 X-45.353 Y-4.232 E95.05389
G1 X-45.451 Y-3.297 E95.13008
G1 X-43.116 Y-5.632 E95.39785
G1 X-42.280 Y-5.632 E95.46566
G1 X-45.515 Y-2.397 E95.83674
G1 X-45.571 Y-1.505 E95.90926
G1 X-41.444 Y-5.632 E96.38268
G1 X-40.608 Y-5.632 E96.45050
G1 X-45.603 Y-0.637 E97.02342
G1 X-45.620 Y0.217 E97.09270
G1 X-39.772 Y-5.632 E97.76359
G1 X-38.936 Y-5.632 E97.83141
G1 X-45.624 Y1.057 E98.59864
G1 X-45.607 Y1.876 E98.66509
G1 X-38.100 Y-5.632 E99.52627
G1 X-37.264 Y-5.632 E99.59408
G1 X-45.588 Y2.693 E100.54901
G1 X-45.539 Y3.480 E100.61294
G1 X-36.428 Y-5.632 E101.65810
G1 X-35.591 Y-5.632 E101.72592
G1 X-45.489 Y4.266 E102.86132
G1 X-45.421 Y5.034 E102.92386
G1 X-34.755 Y-5.632 E104.14737
G1 X-33.919 Y-5.632 E104.21519
G1 X-45.342 Y5.791 E105.52550
G1 X-45.260 Y6.545 E105.58702
G1 X-33.083 Y-5.632 E106.98383
G1 X-32.247 Y-5.632 E107.05165
G1 X-44.510 Y6.632 E108.45838
G1 X-43.674 Y6.632 E108.52620
G1 X-31.411 Y-5.632 E109.93293
G1 X-30.575 Y-5.632 E110.00075
G1 X-42.838 Y6.632 E111.40748
G1 X-42.002 Y6.632 E111.47530
G1 X-29.739 Y-5.632 E112.88204
G1 X-28.903 Y-5.632 E112.94986
G1 X-41.166 Y6.632 E114.35659
G1 X-40.330 Y6.632 E114.42441
G1 X-28.067 Y-5.632 E115.83114
G1 X-27.230 Y-5.632 E115.89896
G1 X-39.494 Y6.632 E117.30570
G1 X-38.658 Y6.632 E117.37351
G1 X-26.394 Y-5.632 E118.78025
G1 X-25.558 Y-5.632 E118.84807
G1 X-37.822 Y6.632 E120.25480
G1 X-36.985 Y6.632 E120.32262
G1 X-24.722 Y-5.632 E121.72935
G1 X-23.886 Y-5.632 E121.79717
G1 X-36.149 Y6.632 E123.20391
G1 X-35.313 Y6.632 E123.27172
G1 X-23.050 Y-5.632 E124.67846
G1 X-22.214 Y-5.632 E124.74628
G1 X-34.477 Y6.632 E126.15301
G1 X-33.641 Y6.632 E126.22083
G1 X-21.378 Y-5.632 E127.62756
G1 X-20.542 Y-5.632 E127.69538
G1 X-32.805 Y6.632 E129.10212
G1 X-31.969 Y6.632 E129.16994
G1 X-19.706 Y-5.632 E130.57667
G1 X-18.869 Y-5.632 E130.64449
G1 X-31.133 Y6.632 E132.05122
G1 X-30.297 Y6.632 E132.11904
G1 X-18.033 Y-5.632 E133.52578
G1 X-17.197 Y-5.632 E133.59359
G1 X-29.460 Y6.632 E135.00033
G1 X-28.624 Y6.632 E135.06815
G1 X-16.361 Y-5.632 E136.47488
G1 X-15.525 Y-5.632 E136.54270
G1 X-27.788 Y6.632 E137.94943
G1 X-26.952 Y6.632 E138.01725
G1 X-14.689 Y-5.632 E139.42399
G1 X-13.853 Y-5.632 E139.49181
G1 X-26.116 Y6.632 E140.89854
G1 X-25.280 Y6.632 E140.96636
G1 X-13.017 Y-5.632 E142.37309
G1 X-12.181 Y-5.632 E142.44091
G1 X-24.444 Y6.632 E143.84764
G1 X-23.608 Y6.632 E143.91546
G1 X-11.345 Y-5.632 E145.32220
G1 X-10.508 Y-5.632 E145.39002
G1 X-22.772 Y6.632 E146.79675
G1 X-21.936 Y6.632 E146.86457
G1 X-9.672 Y-5.632 E148.27130
G1 X-8.836 Y-5.632 E148.33912
G1 X-21.099 Y6.632 E149.74586
G1 X-20.263 Y6.632 E149.81368
G1 X-8.000 Y-5.632 E151.22041
G1 X-7.164 Y-5.632 E151.28823
G1 X-19.427 Y6.632 E152.69496
G1 X-18.591 Y6.632 E152.76278
G1 X-6.328 Y-5.632 E154.16951
G1 X-5.492 Y-5.632 E154.23733
G1 X-17.755 Y6.632 E155.64407
G1 X-16.919 Y6.632 E155.71189
G1 X-4.656 Y-5.632 E157.11862
G1 X-3.820 Y-5.632 E157.18644
G1 X-16.083 Y6.632 E158.59317
G1 X-15.247 Y6.632 E158.66099
G1 X-2.984 Y-5.632 E160.06773
G1 X-2.147 Y-5.632 E160.13554
G1 X-14.411 Y6.632 E161.54228
G1 X-13.575 Y6.632 E161.61010
G1 X-1.311 Y-5.632 E163.01683
G1 X-0.475 Y-5.632 E163.08465
G1 X-12.738 Y6.632 E164.49138
G1 X-11.902 Y6.632 E164.55920
G1 X0.361 Y-5.632 E165.96594
G1 X1.197 Y-5.632 E166.03376
G1 X-11.066 Y6.632 E167.44049
G1 X-10.230 Y6.632 E167.50831
G1 X2.033 Y-5.632 E168.91504
G1 X2.869 Y-5.632 E168.98286
G1 X-9.394 Y6.632 E170.38960
G1 X-8.558 Y6.632 E170.45741
G1 X3.705 Y-5.632 E171.86415
G1 X4.541 Y-5.632 E171.93197
G1 X-7.722 Y6.632 E173.33870
G1 X-6.886 Y6.632 E173.40652
G1 X5.377 Y-5.632 E174.81325
G1 X6.214 Y-5.632 E174.88107
G1 X-6.050 Y6.632 E176.28781
G1 X-5.214 Y6.632 E176.35562
G1 X7.050 Y-5.632 E177.76236
G1 X7.886 Y-5.632 E177.83018
G1 X-4.377 Y6.632 E179.23691
G1 X-3.541 Y6.632 E179.30473
G1 X8.722 Y-5.632 E180.71146
G1 X9.558 Y-5.632 E180.77928
G1 X-2.705 Y6.632 E182.18602
G1 X-1.869 Y6.632 E182.25384
G1 X10.394 Y-5.632 E183.66057
G1 X11.230 Y-5.632 E183.72839
G1 X-1.033 Y6.632 E185.13512
G1 X-0.197 Y6.632 E185.20294
G1 X12.066 Y-5.632 E186.60967
G1 X12.902 Y-5.632 E186.67749
G1 X0.639 Y6.632 E188.08423
G1 X1.475 Y6.632 E188.15205
G1 X13.739 Y-5.632 E189.55878
G1 X14.575 Y-5.632 E189.62660
G1 X2.311 Y6.632 E191.03333
G1 X3.147 Y6.632 E191.10115
G1 X15.411 Y-5.632 E192.50789
G1 X16.247 Y-5.632 E192.57570
G1 X3.984 Y6.632 E193.98244
G1 X4.820 Y6.632 E194.05026
G1 X17.083 Y-5.632 E195.45699
G1 X17.919 Y-5.632 E195.52481
G1 X5.656 Y6.632 E196.93154
G1 X6.492 Y6.632 E196.99936
G1 X18.755 Y-5.632 E198.40610
G1 X19.591 Y-5.632 E198.47392
G1 X7.328 Y6.632 E199.88065
G1 X8.164 Y6.632 E199.94847
G1 X20.427 Y-5.632 E201.35520
G1 X21.263 Y-5.632 E201.42302
G1 X9.000 Y6.632 E202.82975
G1 X9.836 Y6.632 E202.89757
G1 X22.100 Y-5.632 E204.30431
G1 X22.936 Y-5.632 E204.37213
G1 X10.672 Y6.632 E205.77886
G1 X11.508 Y6.632 E205.84668
G1 X23.772 Y-5.632 E207.25341
G1 X24.608 Y-5.632 E207.32123
G1 X12.345 Y6.632 E208.72796
G1 X13.181 Y6.632 E208.79578
G1 X25.444 Y-5.632 E210.20252
G1 X26.280 Y-5.632 E210.27034
G1 X14.017 Y6.632 E211.67707
G1 X14.853 Y6.632 E211.74489
G1 X27.116 Y-5.632 E213.15162
G1 X27.952 Y-5.632 E213.21944
G1 X15.689 Y6.632 E214.62618
G1 X16.525 Y6.632 E214.69399
G1 X28.788 Y-5.632 E216.10073
G1 X29.624 Y-5.632 E216.16855
G1 X17.361 Y6.632 E217.57528
G1 X18.197 Y6.632 E217.64310
G1 X30.461 Y-5.632 E219.04983
G1 X31.297 Y-5.632 E219.11765
G1 X19.033 Y6.632 E220.52438
G1 X19.870 Y6.632 E220.59220
G1 X32.133 Y-5.632 E221.99894
G1 X32.969 Y-5.632 E222.06676
G1 X20.706 Y6.632 E223.47349
G1 X21.542 Y6.632 E223.54131
G1 X33.805 Y-5.632 E224.94804
G1 X34.641 Y-5.632 E225.01586
G1 X22.378 Y6.632 E226.42260
G1 X23.214 Y6.632 E226.49041
G1 X35.477 Y-5.632 E227.89715
G1 X36.313 Y-5.632 E227.96497
G1 X24.050 Y6.632 E229.37170
G1 X24.886 Y6.632 E229.43952
G1 X37.149 Y-5.632 E230.84625
G1 X37.985 Y-5.632 E230.91407
G1 X25.722 Y6.632 E232.32081
G1 X26.558 Y6.632 E232.38863
G1 X38.822 Y-5.632 E233.79536
G1 X39.658 Y-5.632 E233.86318
G1 X27.394 Y6.632 E235.26991
G1 X28.231 Y6.632 E235.33773
G1 X40.494 Y-5.632 E236.74446
G1 X41.330 Y-5.632 E236.81228
G1 X29.067 Y6.632 E238.21902
G1 X29.903 Y6.632 E238.28684
G1 X42.166 Y-5.632 E239.69357
G1 X43.002 Y-5.632 E239.76139
G1 X30.739 Y6.632 E241.16812
G1 X31.575 Y6.632 E241.23594
G1 X43.838 Y-5.632 E242.64267
G1 X44.674 Y-5.632 E242.71049
G1 X32.411 Y6.632 E244.11723
G1 X33.247 Y6.632 E244.18505
G1 X45.510 Y-5.632 E245.59178
G1 X46.247 Y-5.632 E245.65151
G1 X46.257 Y-5.542 E245.65885
G1 X34.083 Y6.632 E247.05526
G1 X34.919 Y6.632 E247.12308
G1 X46.338 Y-4.787 E248.43296
G1 X46.420 Y-4.033 E248.49451
G1 X35.755 Y6.632 E249.71784
G1 X36.592 Y6.632 E249.78566
G1 X46.489 Y-3.266 E250.92105
G1 X46.539 Y-2.480 E250.98498
G1 X37.428 Y6.632 E252.03014
G1 X38.264 Y6.632 E252.09796
G1 X46.588 Y-1.693 E253.05287
G1 X46.607 Y-0.876 E253.11918
G1 X39.100 Y6.632 E253.98035
G1 X39.936 Y6.632 E254.04817
G1 X46.624 Y-0.057 E254.81540
G1 X46.620 Y0.783 E254.88353
G1 X40.772 Y6.632 E255.55441
G1 X41.608 Y6.632 E255.62223
G1 X46.603 Y1.637 E256.19514
G1 X46.571 Y2.505 E256.26555
G1 X42.444 Y6.632 E256.73896
G1 X43.280 Y6.632 E256.80678
G1 X46.515 Y3.397 E257.17785
G1 X46.451 Y4.297 E257.25109
G1 X44.116 Y6.632 E257.51885
G1 X44.953 Y6.632 E257.58667
G1 X46.352 Y5.232 E257.74726
G1 X46.247 Y6.173 E257.82410
G1 X45.789 Y6.632 E257.87669
M104 S230 T0 ; set temperature
M73 P1
G1 Z0.630 F7800.000
G1 X-45.934 Y-6.464 F7800.000
G1 F3600
G1 X46.934 Y-6.464 E262.72859
G1 X47.094 Y-5.382 E262.78570
G1 X47.299 Y-3.427 E262.88841
G1 X47.422 Y-1.465 E262.99111
G1 X47.464 Y0.500 E263.09382
G1 X47.422 Y2.465 E263.19652
G1 X47.299 Y4.427 E263.29923
G1 X47.094 Y6.382 E263.40193
G1 X46.934 Y7.464 E263.45904
G1 X-45.934 Y7.464 E268.31094
G1 X-46.094 Y6.382 E268.36805
G1 X-46.299 Y4.427 E268.47076
G1 X-46.423 Y2.465 E268.57346
G1 X-46.464 Y0.500 E268.67617
G1 X-46.423 Y-1.465 E268.77888
G1 X-46.299 Y-3.427 E268.88158
G1 X-46.094 Y-5.382 E268.98429
G1 X-45.943 Y-6.405 E269.03826
G1 X-46.296 Y-6.883 F7800.000
G1 F3600
G1 X47.296 Y-6.883 E273.92794
G1 X47.509 Y-5.435 E274.00440
G1 X47.717 Y-3.462 E274.10802
G1 X47.841 Y-1.483 E274.21165
G1 X47.883 Y0.500 E274.31527
G1 X47.841 Y2.483 E274.41889
G1 X47.717 Y4.462 E274.52251
G1 X47.509 Y6.435 E274.62613
G1 X47.296 Y7.883 E274.70259
G1 X-46.296 Y7.883 E279.59228
G1 X-46.509 Y6.435 E279.66873
G1 X-46.717 Y4.462 E279.77236
G1 X-46.841 Y2.483 E279.87598
G1 X-46.883 Y0.500 E279.97960
G1 X-46.841 Y-1.483 E280.08322
G1 X-46.717 Y-3.462 E280.18684
G1 X-46.509 Y-5.435 E280.29047
G1 X-46.305 Y-6.823 E280.36379
G1 X-46.639 Y-7.280 F7800.000
G1 F1800
G1 X47.639 Y-7.280 E284.78063
G1 X47.904 Y-5.485 E284.86564
G1 X48.113 Y-3.496 E284.95934
G1 X48.238 Y-1.500 E285.05304
G1 X48.280 Y0.500 E285.14674
G1 X48.238 Y2.500 E285.24044
G1 X48.113 Y4.496 E285.33414
G1 X47.904 Y6.485 E285.42784
G1 X47.639 Y8.280 E285.51286
G1 X-46.639 Y8.280 E289.92969
G1 X-46.904 Y6.485 E290.01471
G1 X-47.113 Y4.496 E290.10841
G1 X-47.238 Y2.500 E290.20211
G1 X-47.280 Y0.500 E290.29581
G1 X-47.238 Y-1.500 E290.38951
G1 X-47.113 Y-3.496 E290.48321
G1 X-46.904 Y-5.485 E290.57691
G1 X-46.647 Y-7.221 E290.65912
G1 X-46.301 Y-7.066 F7800.000
G1 X-45.410 Y7.208 F7800.000
G1 F1200
G1 X-45.736 Y6.882 E290.68328
G1 X-45.839 Y6.184 E290.72024
G1 X-44.815 Y7.208 E290.79616
G1 X-44.220 Y7.208 E290.82733
G1 X-45.909 Y5.519 E290.95257
G1 X-45.979 Y4.855 E290.98759
G1 X-43.626 Y7.208 E291.16209
G1 X-43.031 Y7.208 E291.19327
G1 X-46.047 Y4.192 E291.41690
G1 X-46.087 Y3.558 E291.45023
G1 X-42.437 Y7.208 E291.72091
G1 X-41.842 Y7.208 E291.75209
G1 X-46.127 Y2.923 E292.06981
G1 X-46.167 Y2.289 E292.10315
G1 X-41.248 Y7.208 E292.46792
G1 X-40.653 Y7.208 E292.49909
G1 X-46.179 Y1.681 E292.90891
G1 X-46.192 Y1.074 E292.94076
G1 X-40.058 Y7.208 E293.39561
G1 X-39.464 Y7.208 E293.42678
G1 X-46.205 Y0.467 E293.92666
G1 X-46.198 Y-0.121 E293.95748
G1 X-38.869 Y7.208 E294.50094
G1 X-38.275 Y7.208 E294.53211
G1 X-46.186 Y-0.703 E295.11876
G1 X-46.174 Y-1.285 E295.14930
G1 X-37.680 Y7.208 E295.77913
G1 X-37.086 Y7.208 E295.81030
G1 X-46.151 Y-1.858 E296.48256
G1 X-46.116 Y-2.417 E296.51195
G1 X-36.491 Y7.208 E297.22569
G1 X-35.897 Y7.208 E297.25687
G1 X-46.081 Y-2.976 E298.01209
G1 X-46.046 Y-3.536 E298.04148
G1 X-35.302 Y7.208 E298.83818
G1 X-34.708 Y7.208 E298.86936
G1 X-45.990 Y-4.075 E299.70601
G1 X-45.934 Y-4.613 E299.73438
G1 X-34.113 Y7.208 E300.61093
G1 X-33.518 Y7.208 E300.64211
G1 X-45.877 Y-5.151 E301.55856
G1 X-45.813 Y-5.681 E301.58659
G1 X-32.924 Y7.208 E302.54240
G1 X-32.329 Y7.208 E302.57358
G1 X-45.736 Y-6.208 E303.56807
G1 X-45.151 Y-6.208 E303.59874
G1 X-31.735 Y7.208 E304.59360
G1 X-31.140 Y7.208 E304.62477
G1 X-44.556 Y-6.208 E305.61962
G1 X-43.962 Y-6.208 E305.65080
G1 X-30.546 Y7.208 E306.64565
G1 X-29.951 Y7.208 E306.67683
