; generated by Slic3r 1.3.0 on 2020-04-18 at 17:23:45

; external perimeters extrusion width = 0.44mm (3.38mm^3/s)
; perimeters extrusion width = 0.48mm (7.54mm^3/s)
; infill extrusion width = 0.48mm (10.05mm^3/s)
; solid infill extrusion width = 0.48mm (2.51mm^3/s)
; top infill extrusion width = 0.48mm (1.88mm^3/s)

M127
M109 S100 ; set bed temperature and wait for it to be reached
M104 S235 T0 ; set temperature
M103 ; Turn all extruders off, Extruder Retraction
G21 ; set units to mm
G90 ; Use absolute coordinates
(**** begin homing ****)
G162 X Y F2500 ; home XY axes to maximum stops
G161 Z F1100 ; home Z axis to minimum stop
G92 Z-5 ; Set Position Z =-5mm
G1 Z0.0 ; move Z to "0"
G161 Z F100 ; home Z axis to minimum stop slowly
M132 X Y Z A B ; Recall stored home offsets for XYZAB axis
               ; Loads the axis offset of the current home position from the EEPROM and waits for the buffer to empty.
G90 ; Use absolute coordinates
G1 X0 Y0 Z50 F3300.0 ; move to waiting position near center of build plate
; Filament gcode

; Filament gcode

M104 S235 T0 ; set temperature
M6 T0 ; wait for temperature to be reached
G21 ; set units to millimeters
G90 ; use absolute coordinates
M73 P0
G1 Z0.330 F7800.000
G1 E-2.00000 F2400.00000
G1 X-33.268 Y-39.932 F7800.000
G1 E0.00000 F2400.00000
G1 F1800
G1 X-32.913 Y-40.231 E0.03756
G1 X-30.790 Y-41.884 E0.25505
G1 X-28.586 Y-43.427 E0.47254
G1 X-26.305 Y-44.855 E0.69003
G1 X-23.955 Y-46.164 E0.90753
G1 X-21.540 Y-47.352 E1.12502
G1 X-19.069 Y-48.415 E1.34251
G1 X-16.546 Y-49.350 E1.56000
G1 X-13.979 Y-50.156 E1.77750
G1 X-11.374 Y-50.829 E1.99499
G1 X-8.738 Y-51.368 E2.21248
G1 X-6.078 Y-51.772 E2.42997
G1 X-3.664 Y-52.020 E2.62609
G1 X-0.977 Y-52.164 E2.84359
G1 X1.713 Y-52.171 E3.06108
G1 X4.400 Y-52.040 E3.27857
G1 X7.078 Y-51.772 E3.49607
G1 X9.738 Y-51.368 E3.71356
G1 X12.374 Y-50.829 E3.93105
G1 X14.979 Y-50.156 E4.14854
G1 X17.546 Y-49.350 E4.36603
G1 X20.069 Y-48.415 E4.58352
G1 X22.540 Y-47.352 E4.80102
G1 X24.955 Y-46.164 E5.01851
G1 X27.305 Y-44.855 E5.23600
G1 X29.586 Y-43.427 E5.45349
G1 X31.790 Y-41.884 E5.67099
G1 X33.913 Y-40.231 E5.88848
G1 X35.949 Y-38.472 E6.10597
G1 X37.748 Y-36.750 E6.30729
G1 X38.078 Y-36.423 E6.34484
G1 X39.914 Y-34.456 E6.56233
G1 X41.481 Y-32.604 E6.75845
G1 X43.118 Y-30.469 E6.97594
G1 X44.643 Y-28.252 E7.19344
G1 X46.053 Y-25.961 E7.41093
G1 X47.344 Y-23.600 E7.62842
G1 X48.514 Y-21.177 E7.84591
G1 X49.557 Y-18.697 E8.06341
G1 X50.473 Y-16.167 E8.28090
G1 X51.259 Y-13.594 E8.49839
G1 X51.912 Y-10.983 E8.71588
G1 X52.431 Y-8.343 E8.93338
G1 X52.814 Y-5.680 E9.15087
G1 X53.061 Y-3.001 E9.36836
G1 X53.171 Y-0.313 E9.58586
G1 X53.143 Y2.378 E9.80335
G1 X52.978 Y5.063 E10.02085
G1 X52.676 Y7.737 E10.23833
G1 X52.238 Y10.392 E10.45583
G1 X51.665 Y13.020 E10.67332
G1 X50.959 Y15.617 E10.89081
G1 X50.121 Y18.173 E11.10830
G1 X49.153 Y20.684 E11.32580
G1 X48.059 Y23.142 E11.54329
G1 X46.840 Y25.541 E11.76078
G1 X45.501 Y27.874 E11.97827
G1 X44.044 Y30.136 E12.19577
G1 X42.474 Y32.321 E12.41326
G1 X40.919 Y34.267 E12.61457
G1 X40.623 Y34.625 E12.65213
G1 X38.828 Y36.629 E12.86962
G1 X36.932 Y38.539 E13.08711
G1 X34.942 Y40.349 E13.30461
G1 X32.862 Y42.056 E13.52210
G1 X30.698 Y43.654 E13.73959
G1 X28.454 Y45.140 E13.95708
G1 X26.138 Y46.509 E14.17458
G1 X23.755 Y47.758 E14.39207
G1 X21.311 Y48.884 E14.60956
G1 X18.813 Y49.883 E14.82705
G1 X16.268 Y50.754 E15.04454
G1 X13.936 Y51.427 E15.24067
G1 X11.318 Y52.046 E15.45816
G1 X8.672 Y52.531 E15.67565
G1 X6.004 Y52.881 E15.89314
G1 X3.322 Y53.093 E16.11064
G1 X0.632 Y53.169 E16.32812
G1 X-2.058 Y53.107 E16.54562
G1 X-4.741 Y52.908 E16.76311
G1 X-7.410 Y52.572 E16.98061
G1 X-10.059 Y52.100 E17.19811
G1 X-12.681 Y51.493 E17.41559
G1 X-15.268 Y50.754 E17.63308
G1 X-17.813 Y49.883 E17.85058
G1 X-20.126 Y48.959 E18.05189
G1 X-20.554 Y48.779 E18.08944
G1 X-22.992 Y47.641 E18.30693
G1 X-25.138 Y46.509 E18.50306
G1 X-27.455 Y45.140 E18.72055
G1 X-29.698 Y43.654 E18.93804
G1 X-31.862 Y42.056 E19.15553
G1 X-33.942 Y40.349 E19.37303
G1 X-35.932 Y38.539 E19.59052
G1 X-37.828 Y36.629 E19.80801
G1 X-39.623 Y34.625 E20.02551
G1 X-41.313 Y32.531 E20.24299
G1 X-42.895 Y30.355 E20.46049
G1 X-44.363 Y28.100 E20.67798
G1 X-45.714 Y25.773 E20.89547
G1 X-46.944 Y23.380 E21.11296
G1 X-48.051 Y20.928 E21.33046
G1 X-49.031 Y18.422 E21.54795
G1 X-49.882 Y15.870 E21.76544
G1 X-50.602 Y13.277 E21.98293
G1 X-51.145 Y10.847 E22.18425
G1 X-51.238 Y10.392 E22.22180
G1 X-51.676 Y7.737 E22.43930
G1 X-51.978 Y5.063 E22.65679
G1 X-52.143 Y2.378 E22.87428
G1 X-52.171 Y-0.313 E23.09177
G1 X-52.061 Y-3.001 E23.30927
G1 X-51.844 Y-5.418 E23.50539
G1 X-51.474 Y-8.083 E23.72288
G1 X-50.969 Y-10.725 E23.94037
G1 X-50.329 Y-13.339 E24.15786
G1 X-49.556 Y-15.916 E24.37536
G1 X-48.653 Y-18.450 E24.59285
G1 X-47.622 Y-20.935 E24.81034
G1 X-46.465 Y-23.365 E25.02783
G1 X-45.185 Y-25.732 E25.24532
G1 X-43.787 Y-28.030 E25.46282
G1 X-42.273 Y-30.254 E25.68031
G1 X-40.647 Y-32.398 E25.89780
G1 X-38.914 Y-34.456 E26.11529
G1 X-37.078 Y-36.423 E26.33279
G1 X-35.144 Y-38.294 E26.55028
G1 X-33.314 Y-39.893 E26.74674
G1 X-32.882 Y-39.487 F7800.000
G1 F1800
G1 X-32.550 Y-39.767 E26.78187
G1 X-30.451 Y-41.402 E26.99693
G1 X-28.272 Y-42.928 E27.21199
G1 X-26.017 Y-44.341 E27.42705
G1 X-23.693 Y-45.636 E27.64211
G1 X-21.306 Y-46.811 E27.85717
G1 X-18.863 Y-47.863 E28.07223
G1 X-16.368 Y-48.789 E28.28729
G1 X-13.830 Y-49.586 E28.50235
G1 X-11.254 Y-50.252 E28.71741
G1 X-8.648 Y-50.786 E28.93247
G1 X-6.018 Y-51.186 E29.14753
G1 X-3.604 Y-51.434 E29.34365
G1 X-0.947 Y-51.575 E29.55871
G1 X1.713 Y-51.581 E29.77377
G1 X4.370 Y-51.452 E29.98883
G1 X7.018 Y-51.186 E30.20390
G1 X9.648 Y-50.786 E30.41896
G1 X12.254 Y-50.252 E30.63402
G1 X14.830 Y-49.586 E30.84908
G1 X17.368 Y-48.789 E31.06414
G1 X19.863 Y-47.863 E31.27920
G1 X22.306 Y-46.811 E31.49426
G1 X24.693 Y-45.636 E31.70932
G1 X27.017 Y-44.341 E31.92438
G1 X29.272 Y-42.928 E32.13944
G1 X31.451 Y-41.402 E32.35450
G1 X33.550 Y-39.767 E32.56956
G1 X35.563 Y-38.027 E32.78462
G1 X37.339 Y-36.326 E32.98350
G1 X37.648 Y-36.020 E33.01863
G1 X39.464 Y-34.076 E33.23369
G1 X41.178 Y-32.041 E33.44875
G1 X42.649 Y-30.111 E33.64487
G1 X44.157 Y-27.919 E33.85992
G1 X45.551 Y-25.653 E34.07499
G1 X46.827 Y-23.319 E34.29005
G1 X47.982 Y-20.922 E34.50511
G1 X49.014 Y-18.470 E34.72017
G1 X49.919 Y-15.968 E34.93523
G1 X50.695 Y-13.423 E35.15029
G1 X51.340 Y-10.842 E35.36535
G1 X51.852 Y-8.231 E35.58041
G1 X52.231 Y-5.598 E35.79547
G1 X52.474 Y-2.948 E36.01053
G1 X52.582 Y-0.290 E36.22560
G1 X52.554 Y2.370 E36.44066
G1 X52.390 Y5.026 E36.65572
G1 X52.091 Y7.669 E36.87077
G1 X51.657 Y10.294 E37.08584
G1 X51.090 Y12.894 E37.30089
G1 X50.391 Y15.461 E37.51596
G1 X49.561 Y17.988 E37.73102
G1 X48.604 Y20.471 E37.94608
G1 X47.521 Y22.901 E38.16114
G1 X46.316 Y25.273 E38.37620
G1 X44.991 Y27.580 E38.59126
G1 X43.549 Y29.816 E38.80632
G1 X41.996 Y31.976 E39.02138
G1 X40.460 Y33.898 E39.22026
G1 X40.183 Y34.233 E39.25538
G1 X38.408 Y36.215 E39.47045
G1 X36.535 Y38.104 E39.68550
G1 X34.567 Y39.895 E39.90057
G1 X32.696 Y41.438 E40.09668
G1 X30.563 Y43.029 E40.31175
G1 X28.352 Y44.508 E40.52681
G1 X26.068 Y45.873 E40.74187
G1 X23.717 Y47.119 E40.95693
G1 X21.306 Y48.244 E41.17198
G1 X18.841 Y49.244 E41.38705
G1 X16.328 Y50.117 E41.60211
G1 X13.773 Y50.861 E41.81718
G1 X11.184 Y51.473 E42.03223
G1 X8.567 Y51.952 E42.24729
G1 X5.929 Y52.296 E42.46235
G1 X3.277 Y52.506 E42.67741
G1 X0.617 Y52.580 E42.89247
G1 X-2.043 Y52.518 E43.10753
G1 X-4.696 Y52.320 E43.32259
G1 X-7.335 Y51.987 E43.53766
G1 X-9.955 Y51.520 E43.75272
G1 X-12.546 Y50.920 E43.96778
G1 X-15.104 Y50.188 E44.18283
G1 X-17.621 Y49.326 E44.39790
G1 X-19.906 Y48.412 E44.59678
G1 X-20.306 Y48.244 E44.63190
G1 X-22.717 Y47.119 E44.84696
G1 X-24.863 Y45.988 E45.04308
G1 X-27.153 Y44.633 E45.25815
G1 X-29.371 Y43.164 E45.47320
G1 X-31.511 Y41.583 E45.68826
G1 X-33.567 Y39.895 E45.90333
G1 X-35.535 Y38.104 E46.11839
G1 X-37.408 Y36.215 E46.33344
G1 X-39.183 Y34.233 E46.54851
G1 X-40.854 Y32.162 E46.76356
G1 X-42.417 Y30.009 E46.97862
G1 X-43.868 Y27.780 E47.19369
G1 X-45.204 Y25.479 E47.40875
G1 X-46.420 Y23.112 E47.62380
G1 X-47.514 Y20.687 E47.83887
G1 X-48.482 Y18.209 E48.05393
G1 X-49.323 Y15.685 E48.26899
G1 X-50.034 Y13.121 E48.48405
G1 X-50.569 Y10.720 E48.68293
G1 X-50.657 Y10.294 E48.71805
G1 X-51.091 Y7.669 E48.93311
G1 X-51.390 Y5.026 E49.14817
G1 X-51.554 Y2.370 E49.36323
G1 X-51.582 Y-0.290 E49.57830
G1 X-51.474 Y-2.948 E49.79336
G1 X-51.257 Y-5.365 E49.98948
G1 X-50.891 Y-8.000 E50.20453
G1 X-50.390 Y-10.613 E50.41960
G1 X-49.757 Y-13.197 E50.63466
G1 X-48.992 Y-15.745 E50.84972
G1 X-48.099 Y-18.251 E51.06478
G1 X-47.078 Y-20.708 E51.27984
G1 X-45.934 Y-23.110 E51.49490
G1 X-44.668 Y-25.450 E51.70996
G1 X-43.284 Y-27.723 E51.92502
G1 X-41.787 Y-29.921 E52.14008
G1 X-40.178 Y-32.041 E52.35514
G1 X-38.464 Y-34.076 E52.57020
G1 X-36.648 Y-36.020 E52.78526
G1 X-34.736 Y-37.869 E53.00032
G1 X-32.927 Y-39.448 E53.19435
G1 E51.19435 F2400.00000
G1 X-2.884 Y21.460 F7800.000
G1 E53.19435 F2400.00000
G1 F1800
G1 X-2.132 Y20.933 E53.26853
G1 X-1.300 Y20.546 E53.34270
G1 X-0.414 Y20.308 E53.41688
G1 X0.451 Y20.232 E53.48706
G1 X1.406 Y20.306 E53.56454
G1 X2.300 Y20.546 E53.63935
G1 X3.132 Y20.933 E53.71352
G1 X3.884 Y21.460 E53.78770
G1 X4.533 Y22.109 E53.86187
G1 X5.031 Y22.820 E53.93205
G1 X5.445 Y23.684 E54.00953
G1 X5.684 Y24.578 E54.08434
G1 X5.764 Y25.492 E54.15852
G1 X5.684 Y26.406 E54.23269
G1 X5.447 Y27.293 E54.30686
G1 X5.059 Y28.124 E54.38104
G1 X4.533 Y28.876 E54.45521
G1 X3.884 Y29.525 E54.52939
G1 X3.132 Y30.051 E54.60356
G1 X2.300 Y30.439 E54.67773
G1 X1.414 Y30.676 E54.75191
G1 X0.500 Y30.756 E54.82608
G1 X-0.414 Y30.676 E54.90025
G1 X-1.300 Y30.439 E54.97443
G1 X-2.132 Y30.051 E55.04860
G1 X-2.884 Y29.525 E55.12277
G1 X-3.498 Y28.911 E55.19296
G1 X-4.056 Y28.131 E55.27044
G1 X-4.447 Y27.293 E55.34525
G1 X-4.684 Y26.406 E55.41942
G1 X-4.764 Y25.492 E55.49359
G1 X-4.684 Y24.578 E55.56777
G1 X-4.447 Y23.692 E55.64194
G1 X-4.059 Y22.860 E55.71612
G1 X-3.533 Y22.109 E55.79029
G1 X-2.926 Y21.502 E55.85961
G1 X-2.504 Y21.913 F7800.000
G1 F1800
G1 X-1.836 Y21.446 E55.92545
G1 X-1.098 Y21.101 E55.99129
G1 X-0.311 Y20.891 E56.05713
G1 X0.454 Y20.824 E56.11923
G1 X1.307 Y20.889 E56.18838
G1 X2.098 Y21.101 E56.25461
G1 X2.836 Y21.446 E56.32044
G1 X3.504 Y21.913 E56.38629
G1 X4.079 Y22.489 E56.45213
G1 X4.520 Y23.118 E56.51422
G1 X4.890 Y23.889 E56.58337
G1 X5.102 Y24.681 E56.64960
G1 X5.173 Y25.492 E56.71544
G1 X5.102 Y26.304 E56.78128
G1 X4.891 Y27.090 E56.84712
G1 X4.547 Y27.829 E56.91296
G1 X4.079 Y28.496 E56.97880
G1 X3.504 Y29.072 E57.04464
G1 X2.836 Y29.539 E57.11048
G1 X2.098 Y29.883 E57.17632
G1 X1.311 Y30.094 E57.24216
G1 X0.500 Y30.165 E57.30800
G1 X-0.311 Y30.094 E57.37384
G1 X-1.098 Y29.883 E57.43968
G1 X-1.836 Y29.539 E57.50552
G1 X-2.504 Y29.072 E57.57136
G1 X-3.047 Y28.529 E57.63346
G1 X-3.545 Y27.833 E57.70260
G1 X-3.891 Y27.090 E57.76883
G1 X-4.102 Y26.304 E57.83467
G1 X-4.173 Y25.492 E57.90051
G1 X-4.102 Y24.681 E57.96635
G1 X-3.891 Y23.894 E58.03219
G1 X-3.547 Y23.156 E58.09803
G1 X-3.079 Y22.489 E58.16387
G1 X-2.546 Y21.955 E58.22486
G1 X-2.123 Y22.366 F7800.000
G1 F1800
G1 X-1.541 Y21.958 E58.28237
G1 X-0.896 Y21.657 E58.33988
G1 X-0.209 Y21.473 E58.39738
G1 X0.457 Y21.415 E58.45140
G1 X1.207 Y21.473 E58.51221
G1 X1.896 Y21.657 E58.56985
G1 X2.541 Y21.958 E58.62736
G1 X3.123 Y22.366 E58.68487
G1 X3.626 Y22.869 E58.74237
G1 X4.010 Y23.416 E58.79639
G1 X4.335 Y24.095 E58.85720
G1 X4.519 Y24.784 E58.91485
G1 X4.581 Y25.492 E58.97235
G1 X4.519 Y26.201 E59.02986
G1 X4.335 Y26.888 E59.08736
G1 X4.034 Y27.533 E59.14487
G1 X3.626 Y28.116 E59.20238
G1 X3.123 Y28.619 E59.25988
G1 X2.541 Y29.027 E59.31739
G1 X1.896 Y29.327 E59.37490
G1 X1.209 Y29.512 E59.43240
G1 X0.500 Y29.574 E59.48991
G1 X-0.209 Y29.512 E59.54742
G1 X-0.896 Y29.327 E59.60492
G1 X-1.541 Y29.027 E59.66243
G1 X-2.123 Y28.619 E59.71994
G1 X-2.596 Y28.146 E59.77395
G1 X-3.034 Y27.534 E59.83476
G1 X-3.335 Y26.888 E59.89241
G1 X-3.519 Y26.201 E59.94992
G1 X-3.581 Y25.492 E60.00742
G1 X-3.519 Y24.784 E60.06493
G1 X-3.335 Y24.096 E60.12244
G1 X-3.034 Y23.452 E60.17994
G1 X-2.626 Y22.869 E60.23745
G1 X-2.166 Y22.408 E60.29010
G1 X-2.123 Y22.366 F7800.000
G1 E58.29010 F2400.00000
G1 X21.410 Y17.740 F7800.000
G1 E60.29010 F2400.00000
G1 F1800
G1 X21.330 Y16.826 E60.36428
G1 X21.410 Y15.912 E60.43845
G1 X21.647 Y15.025 E60.51263
G1 X22.035 Y14.194 E60.58680
G1 X22.562 Y13.442 E60.66097
G1 X23.210 Y12.793 E60.73515
G1 X23.962 Y12.267 E60.80932
G1 X24.794 Y11.879 E60.88349
G1 X25.680 Y11.642 E60.95767
G1 X26.530 Y11.567 E61.02667
G1 X27.499 Y11.639 E61.10514
G1 X28.395 Y11.879 E61.18013
G1 X29.226 Y12.267 E61.25430
G1 X29.978 Y12.793 E61.32848
G1 X30.627 Y13.442 E61.40265
G1 X31.153 Y14.194 E61.47682
G1 X31.541 Y15.025 E61.55100
G1 X31.778 Y15.912 E61.62517
G1 X31.858 Y16.826 E61.69934
G1 X31.778 Y17.740 E61.77352
G1 X31.541 Y18.626 E61.84769
G1 X31.153 Y19.458 E61.92186
G1 X30.627 Y20.209 E61.99604
G1 X30.023 Y20.813 E62.06508
G1 X29.193 Y21.410 E62.14768
G1 X28.386 Y21.775 E62.21929
G1 X27.508 Y22.010 E62.29273
G1 X26.594 Y22.090 E62.36690
G1 X25.680 Y22.010 E62.44108
G1 X24.794 Y21.772 E62.51525
G1 X23.962 Y21.385 E62.58943
G1 X23.210 Y20.858 E62.66360
G1 X22.562 Y20.209 E62.73777
G1 X22.035 Y19.458 E62.81195
G1 X21.647 Y18.626 E62.88612
G1 X21.426 Y17.798 E62.95544
G1 X21.992 Y17.637 F7800.000
G1 F1800
G1 X21.921 Y16.826 E63.02128
G1 X21.992 Y16.014 E63.08712
G1 X22.203 Y15.228 E63.15296
G1 X22.547 Y14.489 E63.21880
G1 X23.015 Y13.822 E63.28464
G1 X23.591 Y13.246 E63.35048
G1 X24.258 Y12.779 E63.41632
G1 X24.996 Y12.435 E63.48216
G1 X25.783 Y12.224 E63.54800
G1 X26.534 Y12.158 E63.60899
G1 X27.400 Y12.222 E63.67913
G1 X28.192 Y12.435 E63.74546
G1 X28.930 Y12.779 E63.81130
G1 X29.598 Y13.246 E63.87714
G1 X30.174 Y13.822 E63.94298
G1 X30.641 Y14.489 E64.00882
G1 X30.985 Y15.228 E64.07466
G1 X31.196 Y16.014 E64.14050
G1 X31.267 Y16.826 E64.20634
G1 X31.196 Y17.637 E64.27218
G1 X30.985 Y18.424 E64.33802
G1 X30.641 Y19.162 E64.40386
G1 X30.174 Y19.829 E64.46970
G1 X29.640 Y20.363 E64.53072
G1 X28.897 Y20.897 E64.60469
G1 X28.187 Y21.218 E64.66766
G1 X27.406 Y21.427 E64.73306
G1 X26.594 Y21.498 E64.79890
G1 X25.783 Y21.427 E64.86474
G1 X24.996 Y21.217 E64.93058
G1 X24.258 Y20.872 E64.99642
G1 X23.591 Y20.405 E65.06226
G1 X23.015 Y19.829 E65.12810
G1 X22.547 Y19.162 E65.19394
G1 X22.203 Y18.424 E65.25978
G1 X22.008 Y17.695 E65.32077
G1 X22.575 Y17.534 F7800.000
G1 F1800
G1 X22.513 Y16.826 E65.37828
G1 X22.575 Y16.117 E65.43578
G1 X22.759 Y15.430 E65.49329
G1 X23.060 Y14.785 E65.55080
G1 X23.468 Y14.202 E65.60830
G1 X23.971 Y13.699 E65.66581
G1 X24.554 Y13.291 E65.72332
G1 X25.198 Y12.991 E65.78082
G1 X25.885 Y12.806 E65.83833
G1 X26.538 Y12.749 E65.89130
G1 X27.301 Y12.806 E65.95310
G1 X27.990 Y12.991 E66.01079
G1 X28.635 Y13.291 E66.06830
G1 X29.218 Y13.699 E66.12580
G1 X29.721 Y14.202 E66.18331
G1 X30.129 Y14.785 E66.24081
G1 X30.429 Y15.430 E66.29832
G1 X30.613 Y16.117 E66.35583
G1 X30.675 Y16.826 E66.41333
G1 X30.613 Y17.534 E66.47084
G1 X30.429 Y18.222 E66.52835
G1 X30.129 Y18.866 E66.58585
G1 X29.721 Y19.449 E66.64336
G1 X29.257 Y19.913 E66.69634
G1 X28.601 Y20.384 E66.76169
G1 X27.988 Y20.661 E66.81603
G1 X27.303 Y20.845 E66.87338
G1 X26.594 Y20.907 E66.93089
G1 X25.885 Y20.845 E66.98839
G1 X25.198 Y20.661 E67.04590
G1 X24.554 Y20.360 E67.10341
G1 X23.971 Y19.952 E67.16091
G1 X23.468 Y19.449 E67.21842
G1 X23.060 Y18.866 E67.27593
G1 X22.759 Y18.222 E67.33343
G1 X22.590 Y17.592 E67.38609
G1 X22.575 Y17.534 F7800.000
G1 E65.38609 F2400.00000
G1 X0.715 Y6.141 F7800.000
G1 E67.38609 F2400.00000
G1 F1800
G1 X0.741 Y-12.368 E68.88228
G1 X16.748 Y-21.609 E70.37634
G1 X17.736 Y-19.254 E70.58280
G1 X18.166 Y-18.030 E70.68764
G1 X18.512 Y-16.770 E70.79331
G1 X18.768 Y-15.487 E70.89903
G1 X18.932 Y-14.191 E71.00461
G1 X19.005 Y-12.886 E71.11032
G1 X18.986 Y-11.580 E71.21587
G1 X18.875 Y-10.279 E71.32144
G1 X18.671 Y-8.987 E71.42717
G1 X18.378 Y-7.714 E71.53280
G1 X17.995 Y-6.465 E71.63838
