; generated by Slic3r 1.3.0 on 2020-04-18 at 22:29:13

; external perimeters extrusion width = 0.44mm (3.38mm^3/s)
; perimeters extrusion width = 0.48mm (7.54mm^3/s)
; infill extrusion width = 0.48mm (10.05mm^3/s)
; solid infill extrusion width = 0.48mm (2.51mm^3/s)
; top infill extrusion width = 0.48mm (1.88mm^3/s)

M127
M109 S100 ; set bed temperature and wait for it to be reached
M104 S235 T0 ; set temperature
M103 ; Turn all extruders off, Extruder Retraction
G21 ; set units to mm
G90 ; Use absolute coordinates
(**** begin homing ****)
G162 X Y F2500 ; home XY axes to maximum stops
G161 Z F1100 ; home Z axis to minimum stop
G92 Z-5 ; Set Position Z =-5mm
G1 Z0.0 ; move Z to "0"
G161 Z F100 ; home Z axis to minimum stop slowly
M132 X Y Z A B ; Recall stored home offsets for XYZAB axis
               ; Loads the axis offset of the current home position from the EEPROM and waits for the buffer to empty.
G90 ; Use absolute coordinates
G1 X0 Y0 Z50 F3300.0 ; move to waiting position near center of build plate
; Filament gcode

; Filament gcode

M104 S235 T0 ; set temperature
M6 T0 ; wait for temperature to be reached
G21 ; set units to millimeters
G90 ; use absolute coordinates
M73 P0
G1 Z0.360 F7800.000
G1 E-2.00000 F2400.00000
G1 X-13.224 Y25.543 F7800.000
G1 E0.00000 F2400.00000
G1 F1800
G1 X-31.815 Y-6.658 E3.57686
G1 X-32.273 Y-7.567 E3.67478
G1 X-32.495 Y-8.092 E3.72964
G1 X-32.714 Y-8.701 E3.79192
G1 X-32.878 Y-9.247 E3.84678
G1 X-33.030 Y-9.877 E3.90905
G1 X-33.134 Y-10.437 E3.96392
G1 X-33.210 Y-11.022 E4.02059
G1 X-33.261 Y-11.648 E4.08105
G1 X-33.275 Y-12.295 E4.14334
G1 X-33.257 Y-12.865 E4.19819
G1 X-33.201 Y-13.510 E4.26047
G1 X-33.121 Y-14.075 E4.31533
G1 X-32.996 Y-14.710 E4.37761
G1 X-32.856 Y-15.263 E4.43247
G1 X-32.663 Y-15.881 E4.49476
G1 X-32.526 Y-16.269 E4.53435
G1 X-31.894 Y-17.834 E4.69672
G1 X-31.298 Y-19.140 E4.83479
G1 X-30.531 Y-20.643 E4.99717
G1 X-29.560 Y-22.324 E5.18386
G1 X-28.784 Y-23.531 E5.32192
G1 X-27.809 Y-24.909 E5.48429
G1 X-26.770 Y-26.239 E5.64667
G1 X-26.503 Y-26.552 E5.68627
G1 X-26.064 Y-27.028 E5.74855
G1 X-25.655 Y-27.425 E5.80340
G1 X-25.167 Y-27.851 E5.86568
G1 X-24.718 Y-28.203 E5.92054
G1 X-24.187 Y-28.573 E5.98282
G1 X-23.703 Y-28.874 E6.03769
G1 X-23.135 Y-29.186 E6.09997
G1 X-22.622 Y-29.433 E6.15482
G1 X-22.024 Y-29.681 E6.21710
G1 X-21.486 Y-29.872 E6.27197
G1 X-20.865 Y-30.054 E6.33424
G1 X-20.310 Y-30.185 E6.38910
G1 X-19.673 Y-30.300 E6.45139
G1 X-19.107 Y-30.371 E6.50625
G1 X-18.461 Y-30.416 E6.56853
G1 X-18.091 Y-30.429 E6.60417
G1 X19.091 Y-30.429 E10.18103
G1 X19.461 Y-30.416 E10.21668
G1 X20.107 Y-30.371 E10.27897
G1 X20.673 Y-30.300 E10.33383
G1 X21.310 Y-30.185 E10.39611
G1 X21.865 Y-30.054 E10.45096
G1 X22.430 Y-29.888 E10.50764
G1 X23.024 Y-29.681 E10.56810
G1 X23.622 Y-29.433 E10.63037
G1 X24.135 Y-29.186 E10.68523
G1 X24.652 Y-28.902 E10.74190
G1 X25.187 Y-28.573 E10.80237
G1 X25.718 Y-28.203 E10.86465
G1 X26.167 Y-27.851 E10.91951
G1 X26.655 Y-27.425 E10.98179
G1 X27.064 Y-27.028 E11.03664
G1 X27.503 Y-26.552 E11.09892
G1 X28.658 Y-25.111 E11.27656
G1 X29.642 Y-23.740 E11.43894
G1 X30.560 Y-22.324 E11.60132
G1 X31.409 Y-20.865 E11.76370
G1 X32.188 Y-19.367 E11.92607
G1 X32.894 Y-17.834 E12.08845
G1 X33.526 Y-16.269 E12.25082
G1 X33.663 Y-15.881 E12.29042
G1 X33.856 Y-15.263 E12.35270
G1 X33.996 Y-14.710 E12.40756
G1 X34.121 Y-14.075 E12.46985
G1 X34.201 Y-13.510 E12.52471
G1 X34.257 Y-12.865 E12.58698
G1 X34.275 Y-12.295 E12.64184
G1 X34.262 Y-11.706 E12.69851
G1 X34.218 Y-11.079 E12.75897
G1 X34.134 Y-10.437 E12.82125
G1 X34.030 Y-9.877 E12.87612
G1 X33.878 Y-9.247 E12.93840
G1 X33.714 Y-8.701 E12.99325
G1 X33.495 Y-8.092 E13.05553
G1 X33.273 Y-7.567 E13.11039
G1 X32.815 Y-6.658 E13.20831
G1 X14.224 Y25.543 E16.78517
G1 X13.666 Y26.393 E16.88309
G1 X13.322 Y26.848 E16.93794
G1 X12.904 Y27.343 E17.00022
G1 X12.513 Y27.758 E17.05509
G1 X12.044 Y28.204 E17.11737
G1 X11.610 Y28.575 E17.17223
G1 X11.096 Y28.968 E17.23450
G1 X10.625 Y29.290 E17.28937
G1 X10.072 Y29.626 E17.35164
G1 X9.569 Y29.895 E17.40650
G1 X8.983 Y30.169 E17.46878
G1 X8.454 Y30.382 E17.52365
G1 X7.841 Y30.592 E17.58593
G1 X7.292 Y30.747 E17.64079
G1 X6.661 Y30.889 E17.70306
G1 X6.256 Y30.964 E17.74266
G1 X4.585 Y31.199 E17.90504
G1 X3.156 Y31.336 E18.04310
G1 X1.470 Y31.423 E18.20548
G1 X-0.470 Y31.423 E18.39217
G1 X-1.904 Y31.354 E18.53023
G1 X-3.585 Y31.199 E18.69260
G1 X-5.256 Y30.964 E18.85498
G1 X-6.292 Y30.747 E18.95684
G1 X-6.841 Y30.592 E19.01170
G1 X-7.454 Y30.382 E19.07397
G1 X-7.983 Y30.169 E19.12885
G1 X-8.569 Y29.895 E19.19112
G1 X-9.072 Y29.626 E19.24598
G1 X-9.625 Y29.290 E19.30826
G1 X-10.096 Y28.968 E19.36312
G1 X-10.611 Y28.575 E19.42541
G1 X-11.044 Y28.204 E19.48026
G1 X-11.513 Y27.758 E19.54254
G1 X-11.904 Y27.343 E19.59740
G1 X-12.322 Y26.848 E19.65968
G1 X-12.666 Y26.393 E19.71454
G1 X-13.193 Y25.593 E19.80668
G1 X-12.668 Y25.221 F7800.000
G1 F1800
G1 X-31.259 Y-6.979 E23.38355
G1 X-31.695 Y-7.848 E23.47713
G1 X-31.890 Y-8.310 E23.52532
G1 X-32.109 Y-8.919 E23.58760
G1 X-32.253 Y-9.399 E23.63578
G1 X-32.405 Y-10.028 E23.69806
G1 X-32.497 Y-10.521 E23.74626
G1 X-32.573 Y-11.105 E23.80293
G1 X-32.618 Y-11.662 E23.85671
G1 X-32.632 Y-12.309 E23.91901
G1 X-32.616 Y-12.810 E23.96718
G1 X-32.560 Y-13.455 E24.02946
G1 X-32.490 Y-13.951 E24.07765
G1 X-32.365 Y-14.586 E24.13993
G1 X-32.242 Y-15.072 E24.18812
G1 X-32.050 Y-15.690 E24.25041
G1 X-31.929 Y-16.030 E24.28518
G1 X-31.309 Y-17.567 E24.44460
G1 X-30.714 Y-18.873 E24.58266
G1 X-29.959 Y-20.349 E24.74209
G1 X-29.020 Y-21.976 E24.92286
G1 X-28.243 Y-23.183 E25.06092
G1 X-27.286 Y-24.536 E25.22034
G1 X-26.265 Y-25.841 E25.37976
G1 X-26.030 Y-26.116 E25.41454
G1 X-25.591 Y-26.592 E25.47683
G1 X-25.232 Y-26.941 E25.52501
G1 X-24.745 Y-27.367 E25.58729
G1 X-24.350 Y-27.676 E25.63548
G1 X-23.819 Y-28.047 E25.69776
G1 X-23.394 Y-28.311 E25.74595
G1 X-22.826 Y-28.622 E25.80823
G1 X-22.375 Y-28.839 E25.85642
G1 X-21.777 Y-29.088 E25.91869
G1 X-21.305 Y-29.255 E25.96689
G1 X-20.684 Y-29.438 E26.02916
G1 X-20.196 Y-29.553 E26.07735
G1 X-19.559 Y-29.667 E26.13964
G1 X-19.062 Y-29.729 E26.18782
G1 X-18.416 Y-29.775 E26.25010
G1 X19.416 Y-29.775 E29.88955
G1 X20.062 Y-29.729 E29.95183
G1 X20.559 Y-29.667 E30.00002
G1 X21.196 Y-29.553 E30.06231
G1 X21.684 Y-29.438 E30.11049
G1 X22.305 Y-29.255 E30.17277
G1 X22.777 Y-29.088 E30.22096
G1 X23.375 Y-28.839 E30.28324
G1 X23.826 Y-28.622 E30.33142
G1 X24.343 Y-28.339 E30.38809
G1 X24.819 Y-28.047 E30.44189
G1 X25.350 Y-27.676 E30.50417
G1 X25.745 Y-27.367 E30.55236
G1 X26.232 Y-26.941 E30.61464
G1 X26.591 Y-26.592 E30.66282
G1 X27.265 Y-25.841 E30.75987
G1 X28.286 Y-24.536 E30.91929
G1 X29.243 Y-23.183 E31.07871
G1 X30.135 Y-21.786 E31.23813
G1 X30.959 Y-20.349 E31.39755
G1 X31.714 Y-18.873 E31.55697
G1 X32.309 Y-17.567 E31.69503
G1 X32.929 Y-16.030 E31.85445
G1 X33.242 Y-15.072 E31.95149
G1 X33.365 Y-14.586 E31.99968
G1 X33.490 Y-13.951 E32.06196
G1 X33.560 Y-13.455 E32.11015
G1 X33.616 Y-12.810 E32.17243
G1 X33.632 Y-12.309 E32.22062
G1 X33.620 Y-11.720 E32.27729
G1 X33.581 Y-11.162 E32.33108
G1 X33.497 Y-10.521 E32.39336
G1 X33.405 Y-10.028 E32.44155
G1 X33.253 Y-9.399 E32.50383
G1 X33.109 Y-8.919 E32.55201
G1 X32.890 Y-8.310 E32.61429
G1 X32.695 Y-7.848 E32.66248
G1 X32.259 Y-6.979 E32.75606
G1 X13.668 Y25.221 E36.33293
G1 X13.133 Y26.034 E36.42651
G1 X12.831 Y26.433 E36.47469
G1 X12.413 Y26.928 E36.53697
G1 X12.069 Y27.292 E36.58517
G1 X11.601 Y27.739 E36.64745
G1 X11.220 Y28.064 E36.69563
G1 X10.706 Y28.458 E36.75791
G1 X10.292 Y28.740 E36.80610
G1 X9.739 Y29.076 E36.86838
G1 X9.297 Y29.312 E36.91657
G1 X8.710 Y29.587 E36.97884
G1 X8.246 Y29.774 E37.02705
G1 X7.633 Y29.983 E37.08932
G1 X7.151 Y30.120 E37.13751
G1 X6.520 Y30.262 E37.19979
G1 X6.164 Y30.327 E37.23457
G1 X4.523 Y30.559 E37.39399
G1 X3.095 Y30.696 E37.53205
G1 X1.440 Y30.781 E37.69147
G1 X-0.440 Y30.781 E37.87225
G1 X-1.873 Y30.712 E38.01031
G1 X-3.523 Y30.559 E38.16973
G1 X-5.164 Y30.327 E38.32915
G1 X-6.151 Y30.120 E38.42619
G1 X-6.633 Y29.983 E38.47437
G1 X-7.246 Y29.774 E38.53665
G1 X-7.710 Y29.587 E38.58485
G1 X-8.297 Y29.312 E38.64713
G1 X-8.739 Y29.076 E38.69532
G1 X-9.292 Y28.740 E38.75760
G1 X-9.706 Y28.458 E38.80578
G1 X-10.174 Y28.100 E38.86246
G1 X-10.601 Y27.739 E38.91624
G1 X-11.069 Y27.292 E38.97852
G1 X-11.413 Y26.928 E39.02672
G1 X-11.831 Y26.433 E39.08900
G1 X-12.133 Y26.034 E39.13718
G1 X-12.636 Y25.272 E39.22499
G1 E37.22499 F2400.00000
G1 X-2.758 Y18.356 F7800.000
G1 E39.22499 F2400.00000
G1 F1800
G1 X-2.490 Y17.892 E39.27655
G1 X-2.106 Y17.409 E39.33596
G1 X-1.666 Y17.019 E39.39243
G1 X-1.176 Y16.709 E39.44826
G1 X-0.642 Y16.482 E39.50409
G1 X-0.078 Y16.343 E39.55991
G1 X0.456 Y16.300 E39.61148
G1 X1.072 Y16.341 E39.67088
G1 X1.642 Y16.482 E39.72735
G1 X2.176 Y16.709 E39.78318
G1 X2.666 Y17.019 E39.83901
G1 X3.101 Y17.404 E39.89484
G1 X3.468 Y17.854 E39.95066
G1 X3.758 Y18.356 E40.00649
G1 X3.964 Y18.899 E40.06232
G1 X4.080 Y19.467 E40.11814
G1 X4.103 Y20.047 E40.17397
G1 X4.033 Y20.623 E40.22980
G1 X3.872 Y21.181 E40.28563
G1 X3.623 Y21.705 E40.34145
G1 X3.293 Y22.183 E40.39728
G1 X2.891 Y22.601 E40.45311
G1 X2.427 Y22.950 E40.50893
G1 X1.913 Y23.219 E40.56476
G1 X1.363 Y23.403 E40.62059
G1 X0.790 Y23.496 E40.67642
G1 X0.210 Y23.496 E40.73224
G1 X-0.363 Y23.403 E40.78807
G1 X-0.913 Y23.219 E40.84390
G1 X-1.427 Y22.950 E40.89973
G1 X-1.891 Y22.601 E40.95555
G1 X-2.293 Y22.183 E41.01138
G1 X-2.623 Y21.705 E41.06721
G1 X-2.853 Y21.221 E41.11877
G1 X-3.032 Y20.630 E41.17818
G1 X-3.103 Y20.047 E41.23465
G1 X-3.080 Y19.467 E41.29047
G1 X-2.964 Y18.899 E41.34630
G1 X-2.779 Y18.412 E41.39636
G1 X-2.175 Y18.633 F7800.000
G1 F1800
G1 X-1.957 Y18.255 E41.43835
G1 X-1.637 Y17.852 E41.48777
G1 X-1.279 Y17.535 E41.53385
G1 X-0.876 Y17.280 E41.57969
G1 X-0.438 Y17.093 E41.62553
G1 X0.025 Y16.979 E41.67138
G1 X0.460 Y16.944 E41.71337
G1 X0.973 Y16.979 E41.76279
G1 X1.438 Y17.093 E41.80887
G1 X1.876 Y17.280 E41.85471
G1 X2.279 Y17.535 E41.90056
G1 X2.636 Y17.851 E41.94640
G1 X2.937 Y18.220 E41.99224
G1 X3.175 Y18.633 E42.03809
G1 X3.344 Y19.078 E42.08393
G1 X3.440 Y19.545 E42.12978
G1 X3.459 Y20.021 E42.17562
G1 X3.401 Y20.494 E42.22146
G1 X3.269 Y20.952 E42.26731
G1 X3.064 Y21.383 E42.31315
G1 X2.794 Y21.775 E42.35900
G1 X2.464 Y22.119 E42.40484
G1 X2.083 Y22.405 E42.45068
G1 X1.661 Y22.626 E42.49653
G1 X1.209 Y22.777 E42.54237
G1 X0.738 Y22.854 E42.58822
G1 X0.262 Y22.854 E42.63406
G1 X-0.209 Y22.777 E42.67991
G1 X-0.661 Y22.626 E42.72575
G1 X-1.083 Y22.405 E42.77159
G1 X-1.464 Y22.119 E42.81744
G1 X-1.794 Y21.775 E42.86328
G1 X-2.064 Y21.383 E42.90913
G1 X-2.252 Y20.988 E42.95112
G1 X-2.401 Y20.497 E43.00054
G1 X-2.459 Y20.021 E43.04662
G1 X-2.440 Y19.545 E43.09246
G1 X-2.344 Y19.078 E43.13830
G1 X-2.197 Y18.689 E43.17838
G1 X-2.175 Y18.633 F7800.000
G1 E41.17838 F2400.00000
G1 X-18.506 Y-12.483 F7800.000
G1 E43.17838 F2400.00000
G1 F1800
G1 X-18.655 Y-12.406 E43.19450
G1 X-19.205 Y-12.222 E43.25033
G1 X-19.778 Y-12.129 E43.30615
G1 X-20.358 Y-12.129 E43.36198
G1 X-20.931 Y-12.222 E43.41781
G1 X-21.482 Y-12.406 E43.47363
G1 X-21.995 Y-12.675 E43.52946
G1 X-22.459 Y-13.024 E43.58529
G1 X-22.861 Y-13.442 E43.64112
G1 X-23.191 Y-13.920 E43.69694
G1 X-23.421 Y-14.404 E43.74850
G1 X-23.600 Y-14.995 E43.80791
G1 X-23.671 Y-15.578 E43.86438
G1 X-23.648 Y-16.158 E43.92021
G1 X-23.532 Y-16.726 E43.97604
G1 X-23.326 Y-17.269 E44.03187
G1 X-23.036 Y-17.771 E44.08769
G1 X-22.669 Y-18.221 E44.14352
G1 X-22.234 Y-18.606 E44.19935
G1 X-21.744 Y-18.916 E44.25517
G1 X-21.210 Y-19.143 E44.31100
G1 X-20.647 Y-19.282 E44.36683
G1 X-20.112 Y-19.325 E44.41839
G1 X-19.496 Y-19.284 E44.47780
G1 X-18.926 Y-19.143 E44.53427
G1 X-18.392 Y-18.916 E44.59010
G1 X-17.902 Y-18.606 E44.64592
G1 X-17.467 Y-18.221 E44.70175
G1 X-17.100 Y-17.771 E44.75758
G1 X-16.810 Y-17.269 E44.81340
G1 X-16.604 Y-16.726 E44.86923
G1 X-16.488 Y-16.158 E44.92506
G1 X-16.465 Y-15.578 E44.98089
G1 X-16.535 Y-15.002 E45.03671
G1 X-16.696 Y-14.444 E45.09254
G1 X-16.945 Y-13.920 E45.14837
G1 X-17.275 Y-13.442 E45.20419
G1 X-17.677 Y-13.024 E45.26002
G1 X-18.141 Y-12.675 E45.31585
G1 X-18.453 Y-12.511 E45.34978
G1 X-18.805 Y-13.053 F7800.000
G1 F1800
G1 X-18.907 Y-12.999 E45.36091
G1 X-19.359 Y-12.848 E45.40676
G1 X-19.830 Y-12.771 E45.45260
G1 X-20.306 Y-12.771 E45.49845
G1 X-20.777 Y-12.848 E45.54429
G1 X-21.229 Y-12.999 E45.59013
G1 X-21.651 Y-13.220 E45.63598
G1 X-22.032 Y-13.506 E45.68182
G1 X-22.362 Y-13.850 E45.72767
G1 X-22.633 Y-14.242 E45.77351
G1 X-22.820 Y-14.637 E45.81550
G1 X-22.969 Y-15.128 E45.86492
G1 X-23.027 Y-15.604 E45.91100
G1 X-23.008 Y-16.080 E45.95684
G1 X-22.912 Y-16.547 E46.00269
G1 X-22.743 Y-16.992 E46.04853
G1 X-22.505 Y-17.405 E46.09438
G1 X-22.204 Y-17.774 E46.14022
G1 X-21.847 Y-18.090 E46.18606
G1 X-21.444 Y-18.345 E46.23191
G1 X-21.006 Y-18.532 E46.27775
G1 X-20.543 Y-18.646 E46.32360
G1 X-20.108 Y-18.681 E46.36559
G1 X-19.595 Y-18.646 E46.41501
G1 X-19.130 Y-18.532 E46.46109
G1 X-18.692 Y-18.345 E46.50693
G1 X-18.289 Y-18.090 E46.55278
G1 X-17.933 Y-17.774 E46.59862
G1 X-17.631 Y-17.405 E46.64446
G1 X-17.393 Y-16.992 E46.69031
G1 X-17.224 Y-16.547 E46.73615
G1 X-17.129 Y-16.080 E46.78199
G1 X-17.109 Y-15.604 E46.82784
G1 X-17.167 Y-15.131 E46.87368
G1 X-17.299 Y-14.673 E46.91953
G1 X-17.504 Y-14.242 E46.96537
G1 X-17.774 Y-13.850 E47.01121
G1 X-18.104 Y-13.507 E47.05706
G1 X-18.485 Y-13.220 E47.10290
G1 X-18.752 Y-13.080 E47.13184
G1 X-18.806 Y-12.937 F7800.000
G1 E45.13184 F2400.00000
G1 X-11.861 Y-9.615 F7800.000
G1 E47.13184 F2400.00000
G1 F1800
G1 X-11.489 Y-10.367 E47.21264
G1 X-10.955 Y-11.266 E47.31321
G1 X-10.353 Y-12.121 E47.41378
G1 X-9.688 Y-12.927 E47.51434
G1 X-8.963 Y-13.681 E47.61491
G1 X-8.183 Y-14.376 E47.71548
G1 X-7.351 Y-15.010 E47.81605
G1 X-6.474 Y-15.578 E47.91662
G1 X-5.555 Y-16.078 E48.01719
G1 X-4.601 Y-16.505 E48.11775
G1 X-3.636 Y-16.852 E48.21639
G1 X-2.611 Y-17.135 E48.31876
G1 X-1.583 Y-17.335 E48.41945
G1 X-0.545 Y-17.455 E48.52002
G1 X0.480 Y-17.494 E48.61866
G1 X1.543 Y-17.455 E48.72103
G1 X2.583 Y-17.335 E48.82172
G1 X3.609 Y-17.136 E48.92229
G1 X4.617 Y-16.859 E49.02286
G1 X5.601 Y-16.505 E49.12343
G1 X6.555 Y-16.078 E49.22400
G1 X7.474 Y-15.578 E49.32456
G1 X8.351 Y-15.010 E49.42513
G1 X9.183 Y-14.376 E49.52570
G1 X9.963 Y-13.681 E49.62627
G1 X10.688 Y-12.927 E49.72684
G1 X11.353 Y-12.121 E49.82741
G1 X11.955 Y-11.266 E49.92797
G1 X12.479 Y-10.385 E50.02661
G1 X12.952 Y-9.432 E50.12898
G1 X13.343 Y-8.461 E50.22967
G1 X13.659 Y-7.464 E50.33024
G1 X13.897 Y-6.446 E50.43081
G1 X14.057 Y-5.413 E50.53138
G1 X14.137 Y-4.371 E50.63195
G1 X14.137 Y-3.325 E50.73252
G1 X14.057 Y-2.283 E50.83308
G1 X13.900 Y-1.270 E50.93172
G1 X13.659 Y-0.233 E51.03409
G1 X13.343 Y0.765 E51.13478
G1 X12.953 Y1.734 E51.23535
G1 X12.498 Y2.653 E51.33399
G1 X11.955 Y3.569 E51.43636
G1 X11.353 Y4.425 E51.53705
G1 X10.688 Y5.232 E51.63762
G1 X9.977 Y5.970 E51.73626
G1 X9.184 Y6.680 E51.83863
G1 X8.351 Y7.314 E51.93932
G1 X7.474 Y7.882 E52.03989
G1 X6.555 Y8.382 E52.14046
G1 X5.601 Y8.809 E52.24103
G1 X4.617 Y9.163 E52.34159
G1 X3.609 Y9.440 E52.44216
G1 X2.583 Y9.639 E52.54273
G1 X1.565 Y9.756 E52.64137
G1 X0.501 Y9.799 E52.74374
G1 X-0.545 Y9.759 E52.84443
G1 X-1.583 Y9.639 E52.94500
G1 X-2.590 Y9.444 E53.04364
G1 X-3.616 Y9.163 E53.14601
G1 X-4.601 Y8.809 E53.24670
G1 X-5.555 Y8.382 E53.34727
G1 X-6.474 Y7.882 E53.44784
G1 X-7.351 Y7.314 E53.54840
G1 X-8.183 Y6.680 E53.64897
G1 X-8.963 Y5.985 E53.74954
G1 X-9.688 Y5.232 E53.85011
G1 X-10.353 Y4.425 E53.95068
G1 X-10.955 Y3.570 E54.05125
G1 X-11.479 Y2.689 E54.14988
G1 X-11.952 Y1.736 E54.25226
G1 X-12.343 Y0.765 E54.35295
G1 X-12.659 Y-0.232 E54.45351
G1 X-12.897 Y-1.250 E54.55408
G1 X-13.057 Y-2.283 E54.65465
G1 X-13.137 Y-3.325 E54.75522
G1 X-13.137 Y-4.371 E54.85579
G1 X-13.057 Y-5.413 E54.95636
G1 X-12.897 Y-6.446 E55.05692
G1 X-12.659 Y-7.464 E55.15749
G1 X-12.343 Y-8.461 E55.25806
G1 X-11.888 Y-9.561 E55.37259
G1 X-11.285 Y-9.329 F7800.000
G1 F1800
G1 X-10.924 Y-10.060 E55.45102
G1 X-10.415 Y-10.916 E55.54685
G1 X-9.842 Y-11.731 E55.64268
