; generated by Slic3r 1.3.0 on 2020-04-17 at 16:48:21

; external perimeters extrusion width = 0.44mm (1.84mm^3/s)
; perimeters extrusion width = 0.56mm (4.75mm^3/s)
; infill extrusion width = 0.50mm (5.61mm^3/s)
; solid infill extrusion width = 0.56mm (1.58mm^3/s)
; top infill extrusion width = 0.56mm (1.19mm^3/s)
; support material extrusion width = 0.44mm (3.67mm^3/s)

M127
M109 S100 ; set bed temperature and wait for it to be reached
M104 S235 T0 ; set temperature
M103 ; Turn all extruders off, Extruder Retraction
G21 ; set units to mm
G90 ; Use absolute coordinates
(**** begin homing ****)
G162 X Y F2500 ; home XY axes to maximum stops
G161 Z F1100 ; home Z axis to minimum stop
G92 Z-5 ; Set Position Z =-5mm
G1 Z0.0 ; move Z to "0"
G161 Z F100 ; home Z axis to minimum stop slowly
M132 X Y Z A B ; Recall stored home offsets for XYZAB axis
               ; Loads the axis offset of the current home position from the EEPROM and waits for the buffer to empty.
G90 ; Use absolute coordinates
G1 X0 Y0 Z50 F3300.0 ; move to waiting position near center of build plate
; Filament gcode

; Filament gcode

M104 S235 T0 ; set temperature
M6 T0 ; wait for temperature to be reached
G21 ; set units to millimeters
G90 ; use absolute coordinates
M73 P0
G1 Z0.225 F7800.000
G1 E-2.00000 F2400.00000
G1 X-23.518 Y-22.568 F7800.000
G1 E0.00000 F2400.00000
G1 F1800
G1 X-22.319 Y-23.755 E0.06340
G1 X-21.061 Y-24.880 E0.12681
G1 X-19.748 Y-25.939 E0.19021
G1 X-18.382 Y-26.931 E0.25361
G1 X-16.969 Y-27.852 E0.31702
G1 X-15.510 Y-28.700 E0.38042
G1 X-14.011 Y-29.474 E0.44382
G1 X-12.474 Y-30.170 E0.50723
G1 X-10.904 Y-30.788 E0.57063
G1 X-9.305 Y-31.326 E0.63403
G1 X-7.680 Y-31.781 E0.69744
G1 X-6.035 Y-32.154 E0.76084
G1 X-4.713 Y-32.391 E0.81129
G1 X-3.041 Y-32.613 E0.87470
G1 X-1.359 Y-32.750 E0.93810
G1 X0.328 Y-32.801 E1.00151
G1 X2.015 Y-32.767 E1.06491
G1 X3.698 Y-32.648 E1.12832
G1 X5.373 Y-32.443 E1.19172
G1 X7.035 Y-32.154 E1.25513
G1 X8.680 Y-31.781 E1.31853
G1 X10.305 Y-31.326 E1.38194
G1 X11.904 Y-30.788 E1.44533
G1 X13.474 Y-30.170 E1.50873
G1 X15.011 Y-29.474 E1.57213
G1 X16.511 Y-28.700 E1.63555
G1 X17.969 Y-27.852 E1.69895
G1 X19.364 Y-26.943 E1.76153
G1 X21.020 Y-25.728 E1.83870
G1 X22.322 Y-24.655 E1.90210
G1 X23.568 Y-23.518 E1.96550
G1 X24.755 Y-22.319 E2.02890
G1 X25.880 Y-21.061 E2.09231
G1 X26.939 Y-19.748 E2.15571
G1 X27.931 Y-18.382 E2.21911
G1 X28.852 Y-16.969 E2.28252
G1 X29.700 Y-15.510 E2.34592
G1 X30.474 Y-14.011 E2.40932
G1 X31.035 Y-12.791 E2.45978
G1 X31.668 Y-11.227 E2.52318
G1 X32.222 Y-9.634 E2.58658
G1 X32.695 Y-8.014 E2.64999
G1 X33.085 Y-6.372 E2.71342
G1 X33.391 Y-4.713 E2.77679
G1 X33.613 Y-3.041 E2.84020
G1 X33.750 Y-1.359 E2.90360
G1 X33.801 Y0.328 E2.96700
G1 X33.767 Y2.015 E3.03041
G1 X33.648 Y3.698 E3.09384
G1 X33.443 Y5.373 E3.15725
G1 X33.154 Y7.035 E3.22063
G1 X32.781 Y8.680 E3.28402
G1 X32.326 Y10.305 E3.34743
G1 X31.788 Y11.904 E3.41084
G1 X31.170 Y13.474 E3.47423
G1 X30.474 Y15.011 E3.53763
G1 X29.710 Y16.491 E3.60023
G1 X28.670 Y18.261 E3.67739
G1 X27.734 Y19.665 E3.74079
G1 X26.728 Y21.020 E3.80420
G1 X25.655 Y22.322 E3.86760
G1 X24.518 Y23.568 E3.93100
G1 X23.319 Y24.755 E3.99441
G1 X22.061 Y25.880 E4.05781
G1 X20.748 Y26.939 E4.12121
G1 X19.383 Y27.931 E4.18461
G1 X17.969 Y28.852 E4.24802
G1 X16.510 Y29.700 E4.31142
G1 X15.011 Y30.474 E4.37483
G1 X13.791 Y31.035 E4.42529
G1 X12.227 Y31.669 E4.48870
G1 X10.633 Y32.222 E4.55209
G1 X9.014 Y32.695 E4.61549
G1 X7.372 Y33.085 E4.67892
G1 X5.713 Y33.391 E4.74230
G1 X4.041 Y33.613 E4.80570
G1 X2.359 Y33.750 E4.86910
G1 X0.672 Y33.801 E4.93251
G1 X-1.015 Y33.767 E4.99591
G1 X-2.698 Y33.648 E5.05934
G1 X-4.373 Y33.443 E5.12275
G1 X-6.035 Y33.154 E5.18613
G1 X-7.680 Y32.781 E5.24952
G1 X-9.305 Y32.326 E5.31292
G1 X-10.904 Y31.788 E5.37634
G1 X-12.454 Y31.178 E5.43893
G1 X-14.320 Y30.322 E5.51608
G1 X-15.812 Y29.533 E5.57949
G1 X-17.261 Y28.670 E5.64289
G1 X-18.665 Y27.734 E5.70629
G1 X-20.020 Y26.728 E5.76970
G1 X-21.322 Y25.655 E5.83310
G1 X-22.568 Y24.518 E5.89650
G1 X-23.518 Y23.568 E5.94696
G1 X-24.655 Y22.322 E6.01036
G1 X-25.728 Y21.020 E6.07377
G1 X-26.734 Y19.665 E6.13717
G1 X-27.670 Y18.261 E6.20057
G1 X-28.533 Y16.812 E6.26398
G1 X-29.322 Y15.320 E6.32738
G1 X-30.035 Y13.791 E6.39078
G1 X-30.669 Y12.227 E6.45420
G1 X-31.223 Y10.633 E6.51760
G1 X-31.695 Y9.014 E6.58100
G1 X-32.085 Y7.372 E6.64439
G1 X-32.391 Y5.713 E6.70780
G1 X-32.613 Y4.041 E6.77120
G1 X-32.750 Y2.359 E6.83460
G1 X-32.801 Y0.672 E6.89801
G1 X-32.767 Y-1.015 E6.96141
G1 X-32.648 Y-2.698 E7.02482
G1 X-32.443 Y-4.373 E7.08822
G1 X-32.158 Y-6.013 E7.15081
G1 X-31.695 Y-8.014 E7.22797
G1 X-31.222 Y-9.634 E7.29137
G1 X-30.668 Y-11.227 E7.35478
G1 X-30.034 Y-12.791 E7.41818
G1 X-29.322 Y-14.320 E7.48158
G1 X-28.533 Y-15.812 E7.54499
G1 X-27.670 Y-17.261 E7.60839
G1 X-26.734 Y-18.665 E7.67179
G1 X-25.728 Y-20.020 E7.73520
G1 X-24.655 Y-21.322 E7.79860
G1 X-23.559 Y-22.525 E7.85975
G1 X-23.234 Y-22.284 F7800.000
G1 F1800
G1 X-22.049 Y-23.457 E7.92239
G1 X-20.807 Y-24.569 E7.98503
G1 X-19.510 Y-25.616 E8.04767
G1 X-18.161 Y-26.595 E8.11030
G1 X-17.040 Y-27.334 E8.16076
G1 X-15.608 Y-28.187 E8.22340
G1 X-14.134 Y-28.966 E8.28604
G1 X-12.623 Y-29.669 E8.34867
G1 X-11.078 Y-30.295 E8.41132
G1 X-9.504 Y-30.842 E8.47395
G1 X-7.903 Y-31.309 E8.53659
G1 X-6.282 Y-31.694 E8.59923
G1 X-4.642 Y-31.996 E8.66187
G1 X-2.990 Y-32.214 E8.72451
G1 X-1.328 Y-32.349 E8.78714
G1 X0.338 Y-32.400 E8.84979
G1 X2.004 Y-32.366 E8.91243
G1 X3.667 Y-32.247 E8.97507
G1 X5.322 Y-32.045 E9.03771
G1 X6.964 Y-31.759 E9.10035
G1 X8.590 Y-31.390 E9.16299
G1 X10.195 Y-30.939 E9.22563
G1 X11.774 Y-30.408 E9.28825
G1 X13.325 Y-29.797 E9.35089
G1 X14.843 Y-29.109 E9.41353
G1 X16.325 Y-28.344 E9.47618
G1 X17.765 Y-27.506 E9.53882
G1 X19.143 Y-26.607 E9.60064
G1 X20.766 Y-25.417 E9.67627
G1 X22.053 Y-24.357 E9.73891
G1 X23.284 Y-23.234 E9.80155
G1 X24.457 Y-22.049 E9.86418
G1 X25.569 Y-20.807 E9.92682
G1 X26.616 Y-19.510 E9.98946
G1 X27.595 Y-18.161 E10.05210
G1 X28.506 Y-16.765 E10.11474
G1 X29.344 Y-15.324 E10.17738
G1 X29.966 Y-14.134 E10.22783
G1 X30.669 Y-12.623 E10.29047
G1 X31.295 Y-11.078 E10.35311
G1 X31.842 Y-9.504 E10.41575
G1 X32.309 Y-7.903 E10.47839
G1 X32.694 Y-6.281 E10.54105
G1 X32.996 Y-4.642 E10.60366
G1 X33.214 Y-2.990 E10.66630
G1 X33.349 Y-1.328 E10.72894
G1 X33.400 Y0.338 E10.79158
G1 X33.366 Y2.004 E10.85422
G1 X33.247 Y3.668 E10.91688
G1 X33.045 Y5.322 E10.97952
G1 X32.759 Y6.964 E11.04215
G1 X32.390 Y8.589 E11.10477
G1 X31.939 Y10.194 E11.16742
G1 X31.408 Y11.774 E11.23006
G1 X30.797 Y13.325 E11.29269
G1 X30.109 Y14.843 E11.35533
G1 X29.354 Y16.305 E11.41715
G1 X28.334 Y18.040 E11.49279
G1 X27.410 Y19.428 E11.55543
G1 X26.417 Y20.766 E11.61807
G1 X25.357 Y22.053 E11.68070
G1 X24.234 Y23.284 E11.74334
G1 X23.049 Y24.457 E11.80598
G1 X21.807 Y25.568 E11.86862
G1 X20.510 Y26.616 E11.93126
G1 X19.161 Y27.595 E11.99390
G1 X17.765 Y28.506 E12.05654
G1 X16.324 Y29.344 E12.11917
G1 X14.843 Y30.109 E12.18181
G1 X13.623 Y30.670 E12.23228
G1 X12.078 Y31.296 E12.29492
G1 X10.504 Y31.842 E12.35755
G1 X8.903 Y32.309 E12.42018
G1 X7.281 Y32.694 E12.48285
G1 X5.642 Y32.996 E12.54546
G1 X3.990 Y33.214 E12.60810
G1 X2.328 Y33.349 E12.67074
G1 X0.662 Y33.400 E12.73338
G1 X-1.004 Y33.366 E12.79602
G1 X-2.668 Y33.247 E12.85868
G1 X-4.322 Y33.045 E12.92132
G1 X-5.964 Y32.759 E12.98394
G1 X-7.589 Y32.390 E13.04657
G1 X-9.194 Y31.939 E13.10921
G1 X-10.774 Y31.408 E13.17186
G1 X-12.305 Y30.805 E13.23367
G1 X-14.134 Y29.966 E13.30931
G1 X-15.608 Y29.187 E13.37194
G1 X-17.040 Y28.334 E13.43458
G1 X-18.428 Y27.410 E13.49722
G1 X-19.766 Y26.417 E13.55986
G1 X-21.053 Y25.357 E13.62250
G1 X-22.284 Y24.234 E13.68514
G1 X-23.234 Y23.284 E13.73560
G1 X-24.357 Y22.053 E13.79823
G1 X-25.417 Y20.766 E13.86087
G1 X-26.410 Y19.428 E13.92351
G1 X-27.334 Y18.040 E13.98615
G1 X-28.187 Y16.608 E14.04879
G1 X-28.966 Y15.134 E14.11142
G1 X-29.669 Y13.623 E14.17407
G1 X-30.296 Y12.078 E14.23672
G1 X-30.842 Y10.503 E14.29936
G1 X-31.309 Y8.903 E14.36199
G1 X-31.694 Y7.282 E14.42462
G1 X-31.996 Y5.642 E14.48726
G1 X-32.214 Y3.990 E14.54989
G1 X-32.349 Y2.328 E14.61253
G1 X-32.400 Y0.662 E14.67518
G1 X-32.366 Y-1.004 E14.73781
G1 X-32.247 Y-2.667 E14.80045
G1 X-32.045 Y-4.322 E14.86310
G1 X-31.763 Y-5.943 E14.92493
G1 X-31.309 Y-7.903 E15.00055
G1 X-30.842 Y-9.504 E15.06319
G1 X-30.295 Y-11.078 E15.12583
G1 X-29.669 Y-12.623 E15.18846
G1 X-28.966 Y-14.134 E15.25110
G1 X-28.187 Y-15.608 E15.31374
G1 X-27.334 Y-17.040 E15.37638
G1 X-26.410 Y-18.428 E15.43902
G1 X-25.417 Y-19.766 E15.50166
G1 X-24.357 Y-21.053 E15.56430
G1 X-23.275 Y-22.241 E15.62468
G1 E13.62468 F2400.00000
G1 X-8.402 Y-4.438 F7800.000
G1 E15.62468 F2400.00000
G1 F1800
G1 X9.402 Y-4.438 E16.29375
G1 X9.402 Y13.366 E16.96282
G1 X-8.402 Y13.366 E17.63190
G1 X-8.402 Y-4.378 E18.29871
G1 X-8.001 Y-4.037 F7800.000
G1 F1800
G1 X9.001 Y-4.037 E18.93759
G1 X9.001 Y12.965 E19.57647
G1 X-8.001 Y12.965 E20.21535
G1 X-8.001 Y-3.977 E20.85198
G1 X-7.599 Y-3.635 F7800.000
G1 F1800
G1 X8.599 Y-3.635 E21.46067
G1 X8.599 Y12.563 E22.06936
G1 X-7.599 Y12.563 E22.67805
G1 X-7.599 Y-3.575 E23.28448
G1 X-7.703 Y-4.021 F7800.000
G1 E21.28448 F2400.00000
G1 X-22.114 Y-11.202 F7800.000
G1 E23.28448 F2400.00000
G1 F1800
G1 X-21.770 Y-11.862 E23.31242
G1 X-21.116 Y-12.973 E23.36090
G1 X-20.406 Y-14.051 E23.40939
G1 X-19.642 Y-15.091 E23.45789
G1 X-18.827 Y-16.091 E23.50638
G1 X-17.961 Y-17.049 E23.55488
G1 X-17.049 Y-17.961 E23.60337
G1 X-16.091 Y-18.827 E23.65187
G1 X-15.091 Y-19.642 E23.70036
G1 X-14.051 Y-20.406 E23.74886
G1 X-12.973 Y-21.116 E23.79735
G1 X-11.861 Y-21.771 E23.84585
G1 X-10.717 Y-22.368 E23.89434
G1 X-9.545 Y-22.907 E23.94284
G1 X-8.346 Y-23.386 E23.99133
G1 X-7.125 Y-23.803 E24.03983
G1 X-5.884 Y-24.158 E24.08832
G1 X-4.627 Y-24.450 E24.13682
G1 X-3.357 Y-24.678 E24.18531
G1 X-2.077 Y-24.841 E24.23381
G1 X-0.790 Y-24.939 E24.28230
G1 X0.500 Y-24.971 E24.33080
G1 X1.769 Y-24.939 E24.37850
G1 X3.077 Y-24.841 E24.42780
G1 X4.357 Y-24.678 E24.47628
G1 X5.627 Y-24.450 E24.52478
G1 X6.884 Y-24.158 E24.57327
G1 X8.125 Y-23.803 E24.62177
G1 X9.346 Y-23.386 E24.67026
G1 X10.545 Y-22.907 E24.71875
G1 X11.717 Y-22.368 E24.76725
G1 X12.861 Y-21.771 E24.81574
G1 X13.973 Y-21.116 E24.86424
G1 X15.051 Y-20.406 E24.91273
G1 X16.091 Y-19.642 E24.96123
G1 X17.091 Y-18.827 E25.00972
G1 X18.049 Y-17.961 E25.05822
G1 X18.961 Y-17.049 E25.10671
G1 X19.827 Y-16.091 E25.15521
G1 X20.642 Y-15.091 E25.20370
G1 X21.406 Y-14.051 E25.25220
G1 X22.116 Y-12.973 E25.30069
G1 X22.771 Y-11.861 E25.34919
G1 X23.368 Y-10.717 E25.39768
G1 X23.907 Y-9.545 E25.44618
G1 X24.386 Y-8.346 E25.49467
G1 X24.803 Y-7.125 E25.54317
G1 X25.158 Y-5.884 E25.59166
G1 X25.450 Y-4.627 E25.64016
G1 X25.678 Y-3.357 E25.68865
G1 X25.841 Y-2.077 E25.73715
G1 X25.939 Y-0.790 E25.78564
G1 X25.971 Y0.500 E25.83414
G1 X25.939 Y1.790 E25.88263
G1 X25.841 Y3.077 E25.93113
G1 X25.678 Y4.357 E25.97962
G1 X25.450 Y5.627 E26.02812
G1 X25.158 Y6.884 E26.07661
G1 X24.803 Y8.125 E26.12511
G1 X24.386 Y9.346 E26.17360
G1 X23.907 Y10.545 E26.22210
G1 X23.368 Y11.717 E26.27059
G1 X22.771 Y12.861 E26.31909
G1 X22.116 Y13.973 E26.36758
G1 X21.406 Y15.051 E26.41608
G1 X20.642 Y16.091 E26.46457
G1 X19.827 Y17.091 E26.51307
G1 X18.961 Y18.049 E26.56156
G1 X18.049 Y18.961 E26.61006
G1 X17.107 Y19.812 E26.65776
G1 X16.091 Y20.642 E26.70706
G1 X15.051 Y21.406 E26.75554
G1 X13.973 Y22.116 E26.80403
G1 X12.861 Y22.771 E26.85253
G1 X11.717 Y23.368 E26.90102
G1 X10.545 Y23.907 E26.94952
G1 X9.346 Y24.386 E26.99801
G1 X8.125 Y24.803 E27.04651
G1 X6.884 Y25.158 E27.09500
G1 X5.627 Y25.450 E27.14350
G1 X4.357 Y25.678 E27.19199
G1 X3.077 Y25.841 E27.24049
G1 X1.790 Y25.939 E27.28898
G1 X0.500 Y25.971 E27.33748
G1 X-0.790 Y25.939 E27.38597
G1 X-2.077 Y25.841 E27.43447
G1 X-3.357 Y25.678 E27.48296
G1 X-4.627 Y25.450 E27.53146
G1 X-5.884 Y25.158 E27.57995
G1 X-7.125 Y24.803 E27.62845
G1 X-8.346 Y24.386 E27.67694
G1 X-9.545 Y23.907 E27.72544
G1 X-10.717 Y23.368 E27.77393
G1 X-11.861 Y22.771 E27.82243
G1 X-12.973 Y22.116 E27.87092
G1 X-14.051 Y21.406 E27.91942
G1 X-15.074 Y20.655 E27.96712
G1 X-16.092 Y19.826 E28.01642
G1 X-17.049 Y18.961 E28.06490
G1 X-17.961 Y18.049 E28.11340
G1 X-18.827 Y17.091 E28.16189
G1 X-19.642 Y16.091 E28.21038
G1 X-20.406 Y15.051 E28.25888
G1 X-21.116 Y13.973 E28.30737
G1 X-21.771 Y12.861 E28.35587
G1 X-22.368 Y11.717 E28.40436
G1 X-22.907 Y10.545 E28.45286
G1 X-23.386 Y9.346 E28.50135
G1 X-23.803 Y8.125 E28.54985
G1 X-24.158 Y6.884 E28.59834
G1 X-24.450 Y5.627 E28.64684
G1 X-24.678 Y4.357 E28.69533
G1 X-24.841 Y3.077 E28.74383
G1 X-24.939 Y1.790 E28.79232
G1 X-24.971 Y0.500 E28.84082
G1 X-24.939 Y-0.790 E28.88931
G1 X-24.841 Y-2.077 E28.93781
G1 X-24.678 Y-3.357 E28.98630
G1 X-24.450 Y-4.627 E29.03480
G1 X-24.158 Y-5.884 E29.08329
G1 X-23.803 Y-7.125 E29.13179
G1 X-23.386 Y-8.346 E29.18028
G1 X-22.907 Y-9.545 E29.22878
G1 X-22.377 Y-10.698 E29.27648
G1 X-22.142 Y-11.149 E29.29559
G1 X-22.470 Y-11.388 F7800.000
G1 F1800
G1 X-22.122 Y-12.056 E29.32392
G1 X-21.457 Y-13.186 E29.37317
G1 X-20.736 Y-14.280 E29.42243
G1 X-19.960 Y-15.337 E29.47169
G1 X-19.131 Y-16.353 E29.52095
G1 X-18.253 Y-17.326 E29.57021
G1 X-17.326 Y-18.253 E29.61947
G1 X-16.353 Y-19.131 E29.66873
G1 X-15.337 Y-19.960 E29.71799
G1 X-14.280 Y-20.736 E29.76725
G1 X-13.186 Y-21.457 E29.81651
G1 X-12.056 Y-22.122 E29.86577
G1 X-10.894 Y-22.729 E29.91503
G1 X-9.703 Y-23.276 E29.96429
G1 X-8.486 Y-23.763 E30.01355
G1 X-7.245 Y-24.187 E30.06281
G1 X-5.985 Y-24.547 E30.11207
G1 X-4.708 Y-24.843 E30.16133
G1 X-3.418 Y-25.075 E30.21059
G1 X-2.118 Y-25.240 E30.25985
G1 X-0.810 Y-25.340 E30.30911
G1 X0.500 Y-25.373 E30.35837
G1 X1.789 Y-25.340 E30.40682
G1 X3.118 Y-25.240 E30.45689
G1 X4.418 Y-25.075 E30.50614
G1 X5.708 Y-24.843 E30.55540
G1 X6.985 Y-24.547 E30.60466
G1 X8.245 Y-24.187 E30.65392
G1 X9.486 Y-23.763 E30.70318
G1 X10.703 Y-23.276 E30.75244
G1 X11.894 Y-22.729 E30.80170
G1 X13.056 Y-22.122 E30.85096
G1 X14.186 Y-21.457 E30.90022
G1 X15.280 Y-20.736 E30.94948
G1 X16.337 Y-19.960 E30.99874
G1 X17.353 Y-19.131 E31.04800
G1 X18.326 Y-18.253 E31.09726
G1 X19.253 Y-17.326 E31.14652
G1 X20.131 Y-16.353 E31.19578
G1 X20.960 Y-15.337 E31.24504
G1 X21.736 Y-14.280 E31.29430
G1 X22.457 Y-13.186 E31.34356
G1 X23.122 Y-12.056 E31.39282
G1 X23.729 Y-10.894 E31.44208
G1 X24.276 Y-9.703 E31.49134
G1 X24.763 Y-8.486 E31.54060
G1 X25.187 Y-7.245 E31.58986
G1 X25.547 Y-5.985 E31.63912
G1 X25.843 Y-4.708 E31.68838
G1 X26.075 Y-3.418 E31.73764
G1 X26.240 Y-2.118 E31.78690
G1 X26.340 Y-0.810 E31.83616
G1 X26.373 Y0.500 E31.88542
G1 X26.340 Y1.810 E31.93468
G1 X26.240 Y3.118 E31.98394
G1 X26.075 Y4.418 E32.03320
G1 X25.843 Y5.708 E32.08246
G1 X25.547 Y6.985 E32.13172
G1 X25.187 Y8.245 E32.18098
G1 X24.763 Y9.486 E32.23024
G1 X24.276 Y10.703 E32.27950
G1 X23.729 Y11.894 E32.32876
G1 X23.122 Y13.056 E32.37802
G1 X22.457 Y14.186 E32.42728
G1 X21.736 Y15.280 E32.47654
G1 X20.960 Y16.337 E32.52580
G1 X20.131 Y17.353 E32.57506
G1 X19.253 Y18.326 E32.62432
G1 X18.326 Y19.253 E32.67358
G1 X17.369 Y20.117 E32.72204
G1 X16.337 Y20.960 E32.77211
G1 X15.280 Y21.736 E32.82136
G1 X14.186 Y22.457 E32.87062
G1 X13.056 Y23.122 E32.91988
G1 X11.894 Y23.729 E32.96914
G1 X10.703 Y24.276 E33.01840
G1 X9.486 Y24.763 E33.06766
G1 X8.245 Y25.187 E33.11692
G1 X6.985 Y25.547 E33.16618
G1 X5.708 Y25.843 E33.21544
G1 X4.418 Y26.075 E33.26470
G1 X3.118 Y26.240 E33.31396
G1 X1.810 Y26.340 E33.36322
G1 X0.500 Y26.373 E33.41248
G1 X-0.810 Y26.340 E33.46174
G1 X-2.118 Y26.240 E33.51100
G1 X-3.418 Y26.075 E33.56026
G1 X-4.708 Y25.843 E33.60952
G1 X-5.985 Y25.547 E33.65878
G1 X-7.245 Y25.187 E33.70804
G1 X-8.486 Y24.763 E33.75730
G1 X-9.703 Y24.276 E33.80656
G1 X-10.894 Y23.729 E33.85582
G1 X-12.056 Y23.122 E33.90508
G1 X-13.186 Y22.457 E33.95434
G1 X-14.280 Y21.736 E34.00360
G1 X-15.320 Y20.972 E34.05206
G1 X-16.353 Y20.131 E34.10213
G1 X-17.326 Y19.253 E34.15138
G1 X-18.253 Y18.326 E34.20064
G1 X-19.131 Y17.353 E34.24990
G1 X-19.960 Y16.337 E34.29916
G1 X-20.736 Y15.280 E34.34842
