; generated by Slic3r 1.3.0 on 2020-04-13 at 17:55:58

; external perimeters extrusion width = 0.44mm (1.84mm^3/s)
; perimeters extrusion width = 0.56mm (4.75mm^3/s)
; infill extrusion width = 0.50mm (5.61mm^3/s)
; solid infill extrusion width = 0.56mm (1.58mm^3/s)
; top infill extrusion width = 0.56mm (1.19mm^3/s)
; support material extrusion width = 0.44mm (3.67mm^3/s)

M127
M104 S205 T0 ; set temperature
M103 ; Turn all extruders off, Extruder Retraction
G21 ; set units to mm
G90 ; Use absolute coordinates
(**** begin homing ****)
G162 X Y F2500 ; home XY axes to maximum stops
G161 Z F1100 ; home Z axis to minimum stop
G92 Z-5 ; Set Position Z =-5mm
G1 Z0.0 ; move Z to "0"
G161 Z F100 ; home Z axis to minimum stop slowly
M132 X Y Z A B ; Recall stored home offsets for XYZAB axis
               ; Loads the axis offset of the current home position from the EEPROM and waits for the buffer to empty.
G90 ; Use absolute coordinates
G1 X0 Y0 Z50 F3300.0 ; move to waiting position near center of build plate
; Filament gcode

; Filament gcode

M104 S205 T0 ; set temperature
M6 T0 ; wait for temperature to be reached
G21 ; set units to millimeters
G90 ; use absolute coordinates
M73 P0
G1 Z0.225 F7800.000
G1 E-2.00000 F2400.00000
G1 X-21.535 Y-22.431 F7800.000
G1 E0.00000 F2400.00000
G1 F1800
G1 X-20.084 Y-23.742 E0.07350
G1 X-18.829 Y-24.753 E0.13404
G1 X-17.526 Y-25.700 E0.19459
G1 X-16.175 Y-26.579 E0.25514
G1 X-14.782 Y-27.389 E0.31569
G1 X-13.350 Y-28.127 E0.37623
G1 X-11.883 Y-28.792 E0.43678
G1 X-10.383 Y-29.382 E0.49733
G1 X-8.856 Y-29.894 E0.55787
G1 X-7.304 Y-30.329 E0.61842
G1 X-5.733 Y-30.685 E0.67897
G1 X-4.145 Y-30.961 E0.73952
G1 X-2.546 Y-31.156 E0.80007
G1 X-0.939 Y-31.269 E0.86061
G1 X0.672 Y-31.301 E0.92116
G1 X1.939 Y-31.269 E0.96876
G1 X3.546 Y-31.156 E1.02931
G1 X5.146 Y-30.961 E1.08987
G1 X6.733 Y-30.685 E1.15042
G1 X8.304 Y-30.329 E1.21095
G1 X9.856 Y-29.894 E1.27150
G1 X11.383 Y-29.382 E1.33205
G1 X12.883 Y-28.792 E1.39259
G1 X14.351 Y-28.127 E1.45315
G1 X15.782 Y-27.389 E1.51368
G1 X17.175 Y-26.579 E1.57423
G1 X18.526 Y-25.700 E1.63479
G1 X19.830 Y-24.753 E1.69533
G1 X21.084 Y-23.742 E1.75588
G1 X22.285 Y-22.668 E1.81642
G1 X23.431 Y-21.535 E1.87697
G1 X24.517 Y-20.345 E1.93752
G1 X25.529 Y-19.118 E1.99730
G1 X26.700 Y-17.526 E2.07156
G1 X27.579 Y-16.175 E2.13211
G1 X28.389 Y-14.782 E2.19266
G1 X29.127 Y-13.350 E2.25320
G1 X29.792 Y-11.883 E2.31375
G1 X30.382 Y-10.383 E2.37430
G1 X30.894 Y-8.856 E2.43484
G1 X31.329 Y-7.304 E2.49539
G1 X31.685 Y-5.733 E2.55594
G1 X31.961 Y-4.145 E2.61649
G1 X32.156 Y-2.546 E2.67704
G1 X32.269 Y-0.939 E2.73758
G1 X32.301 Y0.672 E2.79813
G1 X32.269 Y1.939 E2.84573
G1 X32.156 Y3.546 E2.90628
G1 X31.961 Y5.145 E2.96683
G1 X31.685 Y6.733 E3.02738
G1 X31.329 Y8.304 E3.08792
G1 X30.894 Y9.856 E3.14847
G1 X30.382 Y11.383 E3.20901
G1 X29.792 Y12.883 E3.26956
G1 X29.127 Y14.351 E3.33013
G1 X28.389 Y15.782 E3.39066
G1 X27.579 Y17.176 E3.45121
G1 X26.699 Y18.526 E3.51178
G1 X25.753 Y19.829 E3.57230
G1 X24.742 Y21.084 E3.63285
G1 X23.668 Y22.285 E3.69341
G1 X22.535 Y23.431 E3.75394
G1 X21.345 Y24.517 E3.81449
G1 X20.102 Y25.542 E3.87504
G1 X18.808 Y26.503 E3.93559
G1 X17.468 Y27.397 E3.99613
G1 X15.782 Y28.389 E4.06963
G1 X14.350 Y29.127 E4.13017
G1 X12.883 Y29.792 E4.19072
G1 X11.383 Y30.382 E4.25127
G1 X9.856 Y30.894 E4.31182
G1 X8.304 Y31.329 E4.37236
G1 X6.733 Y31.685 E4.43291
G1 X5.145 Y31.961 E4.49346
G1 X3.546 Y32.156 E4.55401
G1 X1.939 Y32.269 E4.61455
G1 X0.328 Y32.301 E4.67510
G1 X-0.939 Y32.269 E4.72270
G1 X-2.546 Y32.156 E4.78325
G1 X-4.145 Y31.961 E4.84380
G1 X-5.733 Y31.685 E4.90435
G1 X-7.304 Y31.329 E4.96489
G1 X-8.856 Y30.894 E5.02544
G1 X-10.383 Y30.382 E5.08598
G1 X-11.883 Y29.792 E5.14654
G1 X-13.351 Y29.127 E5.20709
G1 X-14.782 Y28.389 E5.26763
G1 X-16.176 Y27.579 E5.32819
G1 X-17.526 Y26.699 E5.38875
G1 X-18.829 Y25.753 E5.44927
G1 X-20.084 Y24.742 E5.50982
G1 X-21.285 Y23.668 E5.57038
G1 X-22.431 Y22.535 E5.63092
G1 X-23.517 Y21.345 E5.69146
G1 X-24.542 Y20.102 E5.75201
G1 X-25.503 Y18.809 E5.81255
G1 X-26.397 Y17.468 E5.87310
G1 X-27.389 Y15.782 E5.94660
G1 X-28.127 Y14.350 E6.00714
G1 X-28.792 Y12.883 E6.06770
G1 X-29.382 Y11.383 E6.12824
G1 X-29.894 Y9.856 E6.18879
G1 X-30.329 Y8.304 E6.24934
G1 X-30.685 Y6.733 E6.30988
G1 X-30.961 Y5.145 E6.37043
G1 X-31.156 Y3.546 E6.43098
G1 X-31.269 Y1.939 E6.49153
G1 X-31.301 Y0.328 E6.55207
G1 X-31.252 Y-1.283 E6.61262
G1 X-31.155 Y-2.546 E6.66023
G1 X-30.961 Y-4.146 E6.72078
G1 X-30.685 Y-5.733 E6.78133
G1 X-30.329 Y-7.304 E6.84186
G1 X-29.894 Y-8.856 E6.90241
G1 X-29.381 Y-10.384 E6.96298
G1 X-28.792 Y-11.883 E7.02350
G1 X-28.127 Y-13.350 E7.08405
G1 X-27.389 Y-14.783 E7.14461
G1 X-26.579 Y-16.175 E7.20515
G1 X-25.700 Y-17.526 E7.26570
G1 X-24.753 Y-18.830 E7.32625
G1 X-23.742 Y-20.084 E7.38679
G1 X-22.668 Y-21.285 E7.44734
G1 X-21.577 Y-22.388 E7.50563
G1 X-21.251 Y-22.147 F7800.000
G1 F1800
G1 X-19.830 Y-23.430 E7.57760
G1 X-18.592 Y-24.429 E7.63738
G1 X-17.305 Y-25.364 E7.69716
G1 X-15.972 Y-26.233 E7.75694
G1 X-14.596 Y-27.033 E7.81673
G1 X-13.183 Y-27.762 E7.87651
G1 X-11.734 Y-28.419 E7.93629
G1 X-10.253 Y-29.001 E7.99608
G1 X-8.745 Y-29.508 E8.05586
G1 X-7.213 Y-29.938 E8.11564
G1 X-5.662 Y-30.290 E8.17542
G1 X-4.094 Y-30.562 E8.23521
G1 X-2.515 Y-30.755 E8.29499
G1 X-0.928 Y-30.868 E8.35477
G1 X0.662 Y-30.900 E8.41456
G1 X2.252 Y-30.851 E8.47434
G1 X3.838 Y-30.722 E8.53412
G1 X5.095 Y-30.562 E8.58173
G1 X6.662 Y-30.289 E8.64152
G1 X8.213 Y-29.938 E8.70129
G1 X9.745 Y-29.508 E8.76107
G1 X11.253 Y-29.001 E8.82085
G1 X12.734 Y-28.419 E8.88063
G1 X14.183 Y-27.762 E8.94042
G1 X15.596 Y-27.033 E9.00020
G1 X16.972 Y-26.233 E9.05998
G1 X18.305 Y-25.364 E9.11977
G1 X19.592 Y-24.429 E9.17955
G1 X20.830 Y-23.430 E9.23933
G1 X22.016 Y-22.370 E9.29911
G1 X23.147 Y-21.251 E9.35890
G1 X24.219 Y-20.076 E9.41868
G1 X25.218 Y-18.864 E9.47770
G1 X26.364 Y-17.305 E9.55043
G1 X27.233 Y-15.972 E9.61021
G1 X28.033 Y-14.597 E9.66999
G1 X28.762 Y-13.183 E9.72978
G1 X29.419 Y-11.734 E9.78956
G1 X30.001 Y-10.253 E9.84934
G1 X30.508 Y-8.745 E9.90912
G1 X30.938 Y-7.213 E9.96891
G1 X31.290 Y-5.662 E10.02869
G1 X31.562 Y-4.094 E10.08847
G1 X31.755 Y-2.515 E10.14826
G1 X31.868 Y-0.928 E10.20804
G1 X31.900 Y0.662 E10.26782
G1 X31.868 Y1.928 E10.31542
G1 X31.755 Y3.515 E10.37520
G1 X31.562 Y5.095 E10.43499
G1 X31.290 Y6.662 E10.49477
G1 X30.938 Y8.213 E10.55455
G1 X30.508 Y9.745 E10.61433
G1 X30.001 Y11.253 E10.67412
G1 X29.419 Y12.734 E10.73390
G1 X28.762 Y14.183 E10.79370
G1 X28.033 Y15.596 E10.85346
G1 X27.233 Y16.972 E10.91325
G1 X26.364 Y18.305 E10.97306
G1 X25.429 Y19.592 E11.03281
G1 X24.430 Y20.830 E11.09260
G1 X23.370 Y22.016 E11.15240
G1 X22.251 Y23.147 E11.21216
G1 X21.076 Y24.219 E11.27195
G1 X19.848 Y25.231 E11.33173
G1 X18.571 Y26.179 E11.39151
G1 X17.247 Y27.061 E11.45129
G1 X15.596 Y28.033 E11.52326
G1 X14.183 Y28.762 E11.58304
G1 X12.734 Y29.419 E11.64283
G1 X11.253 Y30.001 E11.70261
G1 X9.745 Y30.508 E11.76239
G1 X8.213 Y30.938 E11.82217
G1 X6.662 Y31.290 E11.88196
G1 X5.094 Y31.562 E11.94174
G1 X3.515 Y31.755 E12.00152
G1 X1.928 Y31.868 E12.06131
G1 X0.338 Y31.900 E12.12109
G1 X-0.928 Y31.868 E12.16869
G1 X-2.515 Y31.755 E12.22847
G1 X-4.094 Y31.562 E12.28825
G1 X-5.662 Y31.290 E12.34804
G1 X-7.213 Y30.938 E12.40782
G1 X-8.745 Y30.508 E12.46760
G1 X-10.253 Y30.001 E12.52738
G1 X-11.734 Y29.419 E12.58717
G1 X-13.183 Y28.762 E12.64696
G1 X-14.596 Y28.033 E12.70673
G1 X-15.972 Y27.233 E12.76652
G1 X-17.305 Y26.364 E12.82632
G1 X-18.592 Y25.429 E12.88608
G1 X-19.830 Y24.430 E12.94586
G1 X-21.016 Y23.370 E13.00565
G1 X-22.147 Y22.251 E13.06544
G1 X-23.219 Y21.076 E13.12521
G1 X-24.231 Y19.848 E13.18499
G1 X-25.179 Y18.571 E13.24478
G1 X-26.061 Y17.247 E13.30456
G1 X-27.033 Y15.596 E13.37653
G1 X-27.762 Y14.183 E13.43631
G1 X-28.419 Y12.734 E13.49609
G1 X-29.001 Y11.253 E13.55587
G1 X-29.508 Y9.745 E13.61566
G1 X-29.938 Y8.213 E13.67544
G1 X-30.290 Y6.662 E13.73522
G1 X-30.562 Y5.094 E13.79501
G1 X-30.755 Y3.515 E13.85479
G1 X-30.868 Y1.928 E13.91457
G1 X-30.900 Y0.338 E13.97436
G1 X-30.851 Y-1.252 E14.03414
G1 X-30.755 Y-2.516 E14.08175
G1 X-30.562 Y-4.095 E14.14153
G1 X-30.289 Y-5.662 E14.20132
G1 X-29.938 Y-7.213 E14.26109
G1 X-29.508 Y-8.745 E14.32087
G1 X-29.001 Y-10.254 E14.38067
G1 X-28.419 Y-11.734 E14.44043
G1 X-27.762 Y-13.183 E14.50022
G1 X-27.033 Y-14.597 E14.56000
G1 X-26.233 Y-15.972 E14.61978
G1 X-25.364 Y-17.305 E14.67957
G1 X-24.429 Y-18.592 E14.73935
G1 X-23.430 Y-19.830 E14.79913
G1 X-22.370 Y-21.016 E14.85891
G1 X-21.293 Y-22.104 E14.91644
G1 E12.91644 F2400.00000
G1 X-8.402 Y-5.608 F7800.000
G1 E14.91644 F2400.00000
G1 F1800
G1 X9.402 Y-5.608 E15.58551
G1 X9.402 Y12.196 E16.25458
G1 X-8.402 Y12.196 E16.92366
G1 X-8.402 Y-5.548 E17.59047
G1 X-8.001 Y-5.207 F7800.000
G1 F1800
G1 X9.001 Y-5.207 E18.22935
G1 X9.001 Y11.795 E18.86823
G1 X-8.001 Y11.795 E19.50711
G1 X-8.001 Y-5.147 E20.14374
G1 X-7.599 Y-4.805 F7800.000
G1 F1800
G1 X8.599 Y-4.805 E20.75243
G1 X8.599 Y11.393 E21.36112
G1 X-7.599 Y11.393 E21.96981
G1 X-7.599 Y-4.745 E22.57624
G1 X-7.703 Y-5.191 F7800.000
G1 E20.57624 F2400.00000
G1 X-19.524 Y-12.664 F7800.000
G1 E22.57624 F2400.00000
G1 F1800
G1 X-19.175 Y-13.194 E22.60009
G1 X-18.456 Y-14.173 E22.64573
G1 X-17.688 Y-15.114 E22.69136
G1 X-16.874 Y-16.015 E22.73700
G1 X-16.015 Y-16.874 E22.78264
G1 X-15.114 Y-17.688 E22.82828
G1 X-14.173 Y-18.456 E22.87392
G1 X-13.194 Y-19.175 E22.91956
G1 X-12.180 Y-19.843 E22.96520
G1 X-11.133 Y-20.459 E23.01084
G1 X-10.057 Y-21.021 E23.05648
G1 X-8.953 Y-21.529 E23.10212
G1 X-7.825 Y-21.979 E23.14775
G1 X-6.676 Y-22.372 E23.19339
G1 X-5.508 Y-22.706 E23.23903
G1 X-4.325 Y-22.981 E23.28467
G1 X-3.130 Y-23.195 E23.33031
G1 X-1.925 Y-23.348 E23.37595
G1 X-0.714 Y-23.440 E23.42159
G1 X0.500 Y-23.471 E23.46723
G1 X1.694 Y-23.441 E23.51212
G1 X2.926 Y-23.348 E23.55852
G1 X4.130 Y-23.195 E23.60414
G1 X5.325 Y-22.981 E23.64978
G1 X6.508 Y-22.706 E23.69542
G1 X7.676 Y-22.372 E23.74106
G1 X8.825 Y-21.979 E23.78670
G1 X9.953 Y-21.529 E23.83234
G1 X11.057 Y-21.021 E23.87798
G1 X12.133 Y-20.459 E23.92362
G1 X13.180 Y-19.843 E23.96926
G1 X14.194 Y-19.175 E24.01490
G1 X15.173 Y-18.456 E24.06053
G1 X16.114 Y-17.688 E24.10617
G1 X17.015 Y-16.874 E24.15181
G1 X17.874 Y-16.015 E24.19745
G1 X18.688 Y-15.114 E24.24309
G1 X19.456 Y-14.173 E24.28873
G1 X20.175 Y-13.194 E24.33437
G1 X20.843 Y-12.180 E24.38001
G1 X21.459 Y-11.133 E24.42565
G1 X22.021 Y-10.057 E24.47129
G1 X22.529 Y-8.953 E24.51692
G1 X22.979 Y-7.825 E24.56256
G1 X23.372 Y-6.676 E24.60820
G1 X23.706 Y-5.508 E24.65384
G1 X23.981 Y-4.325 E24.69948
G1 X24.195 Y-3.130 E24.74512
G1 X24.348 Y-1.925 E24.79076
G1 X24.440 Y-0.714 E24.83640
G1 X24.471 Y0.500 E24.88204
G1 X24.440 Y1.714 E24.92768
G1 X24.348 Y2.925 E24.97331
G1 X24.195 Y4.130 E25.01895
G1 X23.981 Y5.325 E25.06459
G1 X23.706 Y6.508 E25.11023
G1 X23.372 Y7.676 E25.15587
G1 X22.979 Y8.825 E25.20151
G1 X22.529 Y9.953 E25.24715
G1 X22.021 Y11.057 E25.29279
G1 X21.459 Y12.133 E25.33843
G1 X20.843 Y13.180 E25.38407
G1 X20.175 Y14.194 E25.42971
G1 X19.456 Y15.173 E25.47534
G1 X18.688 Y16.114 E25.52098
G1 X17.874 Y17.015 E25.56662
G1 X17.015 Y17.874 E25.61226
G1 X16.114 Y18.688 E25.65790
G1 X15.173 Y19.456 E25.70354
G1 X14.194 Y20.175 E25.74918
G1 X13.180 Y20.843 E25.79482
G1 X12.133 Y21.459 E25.84046
G1 X11.057 Y22.021 E25.88610
G1 X9.953 Y22.529 E25.93173
G1 X8.825 Y22.979 E25.97737
G1 X7.676 Y23.372 E26.02301
G1 X6.508 Y23.706 E26.06865
G1 X5.325 Y23.981 E26.11429
G1 X4.130 Y24.195 E26.15993
G1 X2.925 Y24.348 E26.20557
G1 X1.714 Y24.440 E26.25121
G1 X0.500 Y24.471 E26.29685
G1 X-0.714 Y24.440 E26.34249
G1 X-1.925 Y24.348 E26.38812
G1 X-3.130 Y24.195 E26.43376
G1 X-4.325 Y23.981 E26.47940
G1 X-5.508 Y23.706 E26.52504
G1 X-6.676 Y23.372 E26.57068
G1 X-7.825 Y22.979 E26.61632
G1 X-8.953 Y22.529 E26.66196
G1 X-10.057 Y22.021 E26.70760
G1 X-11.133 Y21.459 E26.75324
G1 X-12.180 Y20.843 E26.79888
G1 X-13.194 Y20.175 E26.84452
G1 X-14.173 Y19.456 E26.89015
G1 X-15.114 Y18.688 E26.93579
G1 X-16.015 Y17.874 E26.98143
G1 X-16.874 Y17.015 E27.02707
G1 X-17.688 Y16.114 E27.07271
G1 X-18.456 Y15.173 E27.11835
G1 X-19.175 Y14.194 E27.16399
G1 X-19.843 Y13.180 E27.20963
G1 X-20.459 Y12.133 E27.25527
G1 X-21.021 Y11.057 E27.30091
G1 X-21.529 Y9.953 E27.34654
G1 X-21.979 Y8.825 E27.39218
G1 X-22.372 Y7.676 E27.43782
G1 X-22.706 Y6.508 E27.48346
G1 X-22.981 Y5.325 E27.52910
G1 X-23.195 Y4.130 E27.57474
G1 X-23.348 Y2.925 E27.62038
G1 X-23.440 Y1.714 E27.66602
G1 X-23.471 Y0.500 E27.71166
G1 X-23.440 Y-0.714 E27.75730
G1 X-23.348 Y-1.925 E27.80293
G1 X-23.197 Y-3.110 E27.84782
G1 X-22.980 Y-4.326 E27.89423
G1 X-22.706 Y-5.508 E27.93985
G1 X-22.372 Y-6.676 E27.98549
G1 X-21.979 Y-7.825 E28.03113
G1 X-21.529 Y-8.953 E28.07677
G1 X-21.021 Y-10.057 E28.12241
G1 X-20.459 Y-11.133 E28.16805
G1 X-19.843 Y-12.180 E28.21368
G1 X-19.557 Y-12.614 E28.23322
G1 X-19.859 Y-12.885 F7800.000
G1 F1800
G1 X-19.505 Y-13.424 E28.25745
G1 X-18.774 Y-14.419 E28.30386
G1 X-17.993 Y-15.376 E28.35026
G1 X-17.165 Y-16.292 E28.39666
G1 X-16.292 Y-17.165 E28.44307
G1 X-15.376 Y-17.993 E28.48947
G1 X-14.419 Y-18.774 E28.53588
G1 X-13.424 Y-19.505 E28.58228
G1 X-12.392 Y-20.184 E28.62868
G1 X-11.328 Y-20.811 E28.67509
G1 X-10.234 Y-21.382 E28.72149
G1 X-9.112 Y-21.898 E28.76790
G1 X-7.965 Y-22.356 E28.81430
G1 X-6.796 Y-22.755 E28.86071
G1 X-5.609 Y-23.095 E28.90711
G1 X-4.406 Y-23.374 E28.95351
G1 X-3.191 Y-23.592 E28.99992
G1 X-1.966 Y-23.748 E29.04632
G1 X-0.734 Y-23.842 E29.09273
G1 X0.500 Y-23.873 E29.13913
G1 X1.714 Y-23.842 E29.18478
G1 X2.966 Y-23.748 E29.23195
G1 X4.191 Y-23.592 E29.27834
G1 X5.406 Y-23.374 E29.32475
G1 X6.609 Y-23.095 E29.37115
G1 X7.796 Y-22.755 E29.41755
G1 X8.965 Y-22.356 E29.46396
G1 X10.112 Y-21.898 E29.51036
G1 X11.234 Y-21.382 E29.55677
G1 X12.328 Y-20.811 E29.60317
G1 X13.392 Y-20.184 E29.64957
G1 X14.424 Y-19.505 E29.69598
G1 X15.419 Y-18.774 E29.74238
G1 X16.376 Y-17.993 E29.78879
G1 X17.292 Y-17.165 E29.83519
G1 X18.165 Y-16.292 E29.88159
G1 X18.993 Y-15.376 E29.92800
G1 X19.774 Y-14.419 E29.97440
G1 X20.505 Y-13.424 E30.02081
G1 X21.184 Y-12.392 E30.06721
G1 X21.811 Y-11.328 E30.11361
G1 X22.382 Y-10.234 E30.16002
G1 X22.898 Y-9.112 E30.20642
G1 X23.356 Y-7.965 E30.25283
G1 X23.755 Y-6.796 E30.29923
G1 X24.095 Y-5.609 E30.34564
G1 X24.374 Y-4.406 E30.39204
G1 X24.592 Y-3.191 E30.43844
G1 X24.748 Y-1.966 E30.48485
G1 X24.842 Y-0.734 E30.53125
G1 X24.873 Y0.500 E30.57766
G1 X24.842 Y1.734 E30.62406
G1 X24.748 Y2.966 E30.67046
G1 X24.592 Y4.191 E30.71687
G1 X24.374 Y5.406 E30.76327
G1 X24.095 Y6.609 E30.80968
G1 X23.755 Y7.796 E30.85608
G1 X23.356 Y8.965 E30.90248
G1 X22.898 Y10.112 E30.94889
G1 X22.382 Y11.234 E30.99529
G1 X21.811 Y12.328 E31.04170
G1 X21.184 Y13.392 E31.08810
G1 X20.505 Y14.424 E31.13451
G1 X19.774 Y15.419 E31.18091
G1 X18.993 Y16.376 E31.22731
G1 X18.165 Y17.292 E31.27372
G1 X17.292 Y18.165 E31.32012
G1 X16.376 Y18.993 E31.36653
G1 X15.419 Y19.774 E31.41293
G1 X14.424 Y20.505 E31.45933
G1 X13.392 Y21.184 E31.50574
G1 X12.328 Y21.811 E31.55214
G1 X11.234 Y22.382 E31.59855
G1 X10.112 Y22.898 E31.64495
G1 X8.965 Y23.356 E31.69135
G1 X7.796 Y23.755 E31.73776
G1 X6.609 Y24.095 E31.78416
G1 X5.406 Y24.374 E31.83057
G1 X4.191 Y24.592 E31.87697
G1 X2.966 Y24.748 E31.92337
G1 X1.734 Y24.842 E31.96978
G1 X0.500 Y24.873 E32.01618
G1 X-0.734 Y24.842 E32.06259
G1 X-1.966 Y24.748 E32.10899
G1 X-3.191 Y24.592 E32.15540
G1 X-4.406 Y24.374 E32.20180
G1 X-5.609 Y24.095 E32.24820
G1 X-6.796 Y23.755 E32.29461
G1 X-7.965 Y23.356 E32.34101
G1 X-9.112 Y22.898 E32.38742
G1 X-10.234 Y22.382 E32.43382
G1 X-11.328 Y21.811 E32.48022
G1 X-12.392 Y21.184 E32.52663
G1 X-13.424 Y20.505 E32.57303
G1 X-14.419 Y19.774 E32.61944
G1 X-15.376 Y18.993 E32.66584
G1 X-16.292 Y18.165 E32.71224
G1 X-17.165 Y17.292 E32.75865
G1 X-17.993 Y16.376 E32.80505
G1 X-18.774 Y15.419 E32.85146
G1 X-19.505 Y14.424 E32.89786
G1 X-20.184 Y13.392 E32.94426
G1 X-20.811 Y12.328 E32.99067
G1 X-21.382 Y11.234 E33.03707
G1 X-21.898 Y10.112 E33.08348
G1 X-22.356 Y8.965 E33.12988
