; generated by Slic3r 1.3.0 on 2020-04-17 at 11:58:31

; external perimeters extrusion width = 0.44mm (2.38mm^3/s)
; perimeters extrusion width = 0.56mm (6.20mm^3/s)
; infill extrusion width = 0.50mm (7.31mm^3/s)
; solid infill extrusion width = 0.56mm (2.07mm^3/s)
; top infill extrusion width = 0.56mm (1.55mm^3/s)
; support material extrusion width = 0.44mm (4.76mm^3/s)

M127
M109 S65 ; set bed temperature and wait for it to be reached
M104 S210 T0 ; set temperature
M103 ; Turn all extruders off, Extruder Retraction
G21 ; set units to mm
G90 ; Use absolute coordinates
(**** begin homing ****)
G162 X Y F2500 ; home XY axes to maximum stops
G161 Z F1100 ; home Z axis to minimum stop
G92 Z-5 ; Set Position Z =-5mm
G1 Z0.0 ; move Z to "0"
G161 Z F100 ; home Z axis to minimum stop slowly
M132 X Y Z A B ; Recall stored home offsets for XYZAB axis
               ; Loads the axis offset of the current home position from the EEPROM and waits for the buffer to empty.
G90 ; Use absolute coordinates
G1 X0 Y0 Z50 F3300.0 ; move to waiting position near center of build plate
; Filament gcode

; Filament gcode

M104 S210 T0 ; set temperature
M6 T0 ; wait for temperature to be reached
G21 ; set units to millimeters
G90 ; use absolute coordinates
M73 P0
G1 Z0.200 F7800.000
G1 E-2.00000 F2400.00000
G1 X-22.758 Y-23.707 F7800.000
G1 E0.00000 F2400.00000
G1 F1800
G1 X-21.502 Y-24.854 E0.05050
G1 X-20.189 Y-25.936 E0.10100
G1 X-18.824 Y-26.950 E0.15150
G1 X-17.409 Y-27.894 E0.20201
G1 X-15.948 Y-28.764 E0.25250
G1 X-14.444 Y-29.559 E0.30300
G1 X-12.903 Y-30.278 E0.35350
G1 X-11.344 Y-30.910 E0.40343
G1 X-9.378 Y-31.583 E0.46513
G1 X-7.741 Y-32.042 E0.51563
G1 X-6.082 Y-32.418 E0.56612
G1 X-4.406 Y-32.709 E0.61662
G1 X-2.718 Y-32.915 E0.66712
G1 X-1.021 Y-33.035 E0.71762
G1 X0.679 Y-33.069 E0.76812
G1 X2.379 Y-33.017 E0.81862
G1 X4.074 Y-32.879 E0.86912
G1 X5.406 Y-32.709 E0.90899
G1 X7.082 Y-32.418 E0.95949
G1 X8.741 Y-32.042 E1.00999
G1 X10.379 Y-31.583 E1.06049
G1 X11.991 Y-31.042 E1.11098
G1 X13.574 Y-30.419 E1.16148
G1 X15.123 Y-29.717 E1.21198
G1 X16.635 Y-28.938 E1.26250
G1 X18.105 Y-28.083 E1.31299
G1 X19.530 Y-27.155 E1.36348
G1 X20.906 Y-26.155 E1.41398
G1 X22.230 Y-25.087 E1.46449
G1 X23.498 Y-23.954 E1.51498
G1 X24.707 Y-22.758 E1.56548
G1 X25.854 Y-21.502 E1.61597
G1 X26.936 Y-20.189 E1.66648
G1 X27.950 Y-18.824 E1.71697
G1 X28.893 Y-17.409 E1.76747
G1 X29.764 Y-15.948 E1.81797
G1 X30.551 Y-14.461 E1.86791
G1 X31.419 Y-12.573 E1.92960
G1 X32.042 Y-10.991 E1.98010
G1 X32.583 Y-9.378 E2.03060
G1 X33.042 Y-7.741 E2.08110
G1 X33.418 Y-6.082 E2.13160
G1 X33.709 Y-4.406 E2.18210
G1 X33.915 Y-2.718 E2.23260
G1 X34.035 Y-1.021 E2.28310
G1 X34.069 Y0.679 E2.33360
G1 X34.017 Y2.379 E2.38410
G1 X33.879 Y4.074 E2.43460
G1 X33.709 Y5.407 E2.47448
G1 X33.418 Y7.082 E2.52497
G1 X33.042 Y8.741 E2.57546
G1 X32.583 Y10.378 E2.62596
G1 X32.041 Y11.991 E2.67647
G1 X31.419 Y13.574 E2.72697
G1 X30.717 Y15.123 E2.77746
G1 X29.938 Y16.634 E2.82795
G1 X29.083 Y18.105 E2.87847
G1 X28.154 Y19.530 E2.92896
G1 X27.155 Y20.906 E2.97945
G1 X26.087 Y22.230 E3.02995
G1 X24.954 Y23.498 E3.08047
G1 X23.758 Y24.707 E3.13095
G1 X22.502 Y25.854 E3.18145
G1 X21.189 Y26.936 E3.23195
G1 X19.824 Y27.950 E3.28245
G1 X18.409 Y28.893 E3.33295
G1 X16.634 Y29.938 E3.39408
G1 X15.123 Y30.717 E3.44458
G1 X13.573 Y31.419 E3.49508
G1 X11.991 Y32.042 E3.54558
G1 X10.378 Y32.583 E3.59608
G1 X8.741 Y33.042 E3.64657
G1 X7.082 Y33.418 E3.69708
G1 X5.406 Y33.709 E3.74757
G1 X3.718 Y33.915 E3.79807
G1 X2.021 Y34.035 E3.84857
G1 X0.321 Y34.069 E3.89907
G1 X-1.021 Y34.035 E3.93894
G1 X-2.718 Y33.915 E3.98944
G1 X-4.407 Y33.709 E4.03995
G1 X-6.082 Y33.418 E4.09044
G1 X-7.741 Y33.042 E4.14095
G1 X-9.379 Y32.583 E4.19144
G1 X-10.991 Y32.042 E4.24193
G1 X-12.574 Y31.419 E4.29244
G1 X-14.123 Y30.717 E4.34293
G1 X-15.634 Y29.938 E4.39343
G1 X-17.105 Y29.083 E4.44395
G1 X-18.530 Y28.154 E4.49444
G1 X-19.906 Y27.155 E4.54493
G1 X-21.230 Y26.087 E4.59543
G1 X-22.498 Y24.954 E4.64594
G1 X-23.707 Y23.758 E4.69643
G1 X-24.854 Y22.502 E4.74693
G1 X-25.936 Y21.189 E4.79742
G1 X-26.950 Y19.824 E4.84793
G1 X-27.894 Y18.408 E4.89844
G1 X-28.764 Y16.948 E4.94892
G1 X-29.559 Y15.444 E4.99942
G1 X-30.278 Y13.903 E5.04992
G1 X-30.910 Y12.344 E5.09985
G1 X-31.583 Y10.378 E5.16155
G1 X-32.042 Y8.741 E5.21205
G1 X-32.418 Y7.082 E5.26255
G1 X-32.709 Y5.406 E5.31305
G1 X-32.915 Y3.718 E5.36355
G1 X-33.035 Y2.021 E5.41405
G1 X-33.069 Y0.321 E5.46455
G1 X-33.017 Y-1.379 E5.51505
G1 X-32.879 Y-3.074 E5.56555
G1 X-32.709 Y-4.406 E5.60541
G1 X-32.418 Y-6.082 E5.65592
G1 X-32.042 Y-7.741 E5.70642
G1 X-31.583 Y-9.379 E5.75692
G1 X-31.041 Y-10.991 E5.80742
G1 X-30.419 Y-12.574 E5.85792
G1 X-29.717 Y-14.123 E5.90841
G1 X-28.938 Y-15.635 E5.95891
G1 X-28.083 Y-17.105 E6.00941
G1 X-27.155 Y-18.530 E6.05990
G1 X-26.155 Y-19.906 E6.11040
G1 X-25.087 Y-21.230 E6.16090
G1 X-23.954 Y-22.498 E6.21140
G1 X-22.800 Y-23.665 E6.26012
G1 X-22.505 Y-23.455 F7800.000
G1 F1800
G1 X-21.262 Y-24.589 E6.31008
G1 X-19.964 Y-25.659 E6.36004
G1 X-18.333 Y-26.856 E6.42010
G1 X-16.924 Y-27.775 E6.47006
G1 X-15.469 Y-28.621 E6.52003
G1 X-13.974 Y-29.393 E6.56999
G1 X-12.441 Y-30.088 E6.61995
G1 X-10.875 Y-30.704 E6.66991
G1 X-9.280 Y-31.240 E6.71988
G1 X-7.660 Y-31.694 E6.76984
G1 X-6.019 Y-32.066 E6.81980
G1 X-4.361 Y-32.355 E6.86976
G1 X-2.691 Y-32.559 E6.91972
G1 X-1.012 Y-32.678 E6.96969
G1 X0.670 Y-32.712 E7.01965
G1 X2.352 Y-32.661 E7.06961
G1 X4.029 Y-32.524 E7.11957
G1 X5.697 Y-32.303 E7.16954
G1 X7.019 Y-32.066 E7.20941
G1 X8.660 Y-31.694 E7.25937
G1 X10.280 Y-31.240 E7.30933
G1 X11.875 Y-30.704 E7.35929
G1 X13.441 Y-30.088 E7.40925
G1 X14.974 Y-29.393 E7.45921
G1 X16.470 Y-28.621 E7.50919
G1 X17.924 Y-27.775 E7.55915
G1 X19.333 Y-26.856 E7.60910
G1 X20.695 Y-25.867 E7.65906
G1 X22.005 Y-24.810 E7.70903
G1 X23.259 Y-23.689 E7.75898
G1 X24.455 Y-22.505 E7.80895
G1 X25.589 Y-21.262 E7.85891
G1 X26.659 Y-19.964 E7.90888
G1 X27.662 Y-18.613 E7.95883
G1 X28.595 Y-17.212 E8.00880
G1 X29.456 Y-15.767 E8.05876
G1 X30.234 Y-14.296 E8.10815
G1 X31.088 Y-12.441 E8.16878
G1 X31.704 Y-10.875 E8.21874
G1 X32.240 Y-9.280 E8.26870
G1 X32.694 Y-7.660 E8.31866
G1 X33.066 Y-6.019 E8.36863
G1 X33.355 Y-4.361 E8.41859
G1 X33.559 Y-2.691 E8.46855
G1 X33.678 Y-1.012 E8.51851
G1 X33.712 Y0.670 E8.56848
G1 X33.661 Y2.352 E8.61844
G1 X33.524 Y4.029 E8.66840
G1 X33.355 Y5.362 E8.70828
G1 X33.066 Y7.019 E8.75824
G1 X32.694 Y8.660 E8.80819
G1 X32.240 Y10.280 E8.85815
G1 X31.704 Y11.875 E8.90812
G1 X31.087 Y13.441 E8.95809
G1 X30.393 Y14.974 E9.00804
G1 X29.621 Y16.469 E9.05800
G1 X28.775 Y17.924 E9.10798
G1 X27.856 Y19.334 E9.15793
G1 X26.867 Y20.695 E9.20789
G1 X25.811 Y22.004 E9.25785
G1 X24.689 Y23.259 E9.30783
G1 X23.505 Y24.455 E9.35777
G1 X22.262 Y25.589 E9.40774
G1 X20.964 Y26.659 E9.45770
G1 X19.612 Y27.662 E9.50767
G1 X18.212 Y28.595 E9.55762
G1 X16.469 Y29.621 E9.61768
G1 X14.974 Y30.393 E9.66764
G1 X13.441 Y31.088 E9.71761
G1 X11.875 Y31.704 E9.76757
G1 X10.280 Y32.240 E9.81753
G1 X8.660 Y32.694 E9.86749
G1 X7.019 Y33.066 E9.91745
G1 X5.361 Y33.355 E9.96742
G1 X3.691 Y33.559 E10.01738
G1 X2.012 Y33.678 E10.06734
G1 X0.330 Y33.712 E10.11730
G1 X-1.352 Y33.661 E10.16726
G1 X-3.029 Y33.524 E10.21723
G1 X-4.362 Y33.355 E10.25711
G1 X-6.019 Y33.066 E10.30706
G1 X-7.660 Y32.694 E10.35703
G1 X-9.280 Y32.240 E10.40698
G1 X-10.875 Y31.704 E10.45694
G1 X-12.441 Y31.087 E10.50691
G1 X-13.974 Y30.393 E10.55686
G1 X-15.469 Y29.621 E10.60683
G1 X-16.924 Y28.775 E10.65681
G1 X-18.334 Y27.856 E10.70676
G1 X-19.695 Y26.867 E10.75671
G1 X-21.004 Y25.811 E10.80668
G1 X-22.259 Y24.689 E10.85665
G1 X-23.455 Y23.505 E10.90661
G1 X-24.589 Y22.262 E10.95656
G1 X-25.659 Y20.964 E11.00652
G1 X-26.662 Y19.613 E11.05649
G1 X-27.595 Y18.212 E11.10646
G1 X-28.456 Y16.767 E11.15641
G1 X-29.243 Y15.279 E11.20637
G1 X-29.953 Y13.754 E11.25634
G1 X-30.578 Y12.212 E11.30573
G1 X-31.240 Y10.280 E11.36636
G1 X-31.694 Y8.660 E11.41632
G1 X-32.066 Y7.019 E11.46628
G1 X-32.355 Y5.361 E11.51624
G1 X-32.559 Y3.691 E11.56621
G1 X-32.678 Y2.012 E11.61617
G1 X-32.712 Y0.330 E11.66613
G1 X-32.661 Y-1.352 E11.71609
G1 X-32.524 Y-3.029 E11.76605
G1 X-32.303 Y-4.697 E11.81602
G1 X-32.066 Y-6.019 E11.85589
G1 X-31.694 Y-7.660 E11.90585
G1 X-31.240 Y-9.280 E11.95581
G1 X-30.704 Y-10.876 E12.00578
G1 X-30.087 Y-12.441 E12.05574
G1 X-29.393 Y-13.974 E12.10569
G1 X-28.621 Y-15.469 E12.15566
G1 X-27.775 Y-16.924 E12.20562
G1 X-26.856 Y-18.333 E12.25558
G1 X-25.867 Y-19.695 E12.30554
G1 X-24.811 Y-21.004 E12.35550
G1 X-23.689 Y-22.259 E12.40546
G1 X-22.548 Y-23.412 E12.45365
G1 X-22.253 Y-23.202 F7800.000
G1 F1800
G1 X-21.023 Y-24.324 E12.50307
G1 X-19.738 Y-25.382 E12.55250
G1 X-18.137 Y-26.558 E12.61148
G1 X-16.742 Y-27.467 E12.66091
G1 X-15.304 Y-28.305 E12.71033
G1 X-13.825 Y-29.068 E12.75976
G1 X-12.309 Y-29.756 E12.80918
G1 X-10.760 Y-30.366 E12.85861
G1 X-9.182 Y-30.896 E12.90803
G1 X-7.579 Y-31.347 E12.95746
G1 X-5.956 Y-31.715 E13.00688
G1 X-4.316 Y-32.001 E13.05631
G1 X-2.664 Y-32.203 E13.10573
G1 X-1.003 Y-32.321 E13.15516
G1 X0.661 Y-32.355 E13.20458
G1 X2.325 Y-32.305 E13.25401
G1 X3.984 Y-32.170 E13.30343
G1 X5.634 Y-31.952 E13.35286
G1 X7.271 Y-31.650 E13.40228
G1 X8.891 Y-31.266 E13.45171
G1 X10.489 Y-30.800 E13.50113
G1 X12.062 Y-30.254 E13.55056
G1 X13.605 Y-29.629 E13.59998
G1 X15.114 Y-28.926 E13.64941
G1 X16.585 Y-28.149 E13.69883
G1 X18.016 Y-27.297 E13.74826
G1 X19.401 Y-26.374 E13.79768
G1 X20.738 Y-25.382 E13.84711
G1 X21.779 Y-24.534 E13.88698
G1 X23.019 Y-23.424 E13.93640
G1 X24.202 Y-22.253 E13.98582
G1 X25.324 Y-21.023 E14.03525
G1 X26.382 Y-19.738 E14.08468
G1 X27.374 Y-18.401 E14.13410
G1 X28.297 Y-17.016 E14.18352
G1 X29.149 Y-15.585 E14.23295
G1 X29.918 Y-14.131 E14.28181
G1 X30.756 Y-12.309 E14.34136
G1 X31.366 Y-10.760 E14.39078
G1 X31.897 Y-9.182 E14.44021
G1 X32.347 Y-7.579 E14.48963
G1 X32.715 Y-5.956 E14.53906
G1 X33.001 Y-4.316 E14.58848
G1 X33.203 Y-2.664 E14.63791
G1 X33.321 Y-1.003 E14.68734
G1 X33.355 Y0.661 E14.73676
G1 X33.305 Y2.325 E14.78619
G1 X33.170 Y3.984 E14.83561
G1 X33.000 Y5.317 E14.87549
G1 X32.715 Y6.956 E14.92491
G1 X32.347 Y8.579 E14.97433
G1 X31.897 Y10.182 E15.02375
G1 X31.366 Y11.760 E15.07318
G1 X30.756 Y13.309 E15.12261
G1 X30.068 Y14.825 E15.17203
G1 X29.305 Y16.304 E15.22145
G1 X28.467 Y17.743 E15.27089
G1 X27.558 Y19.137 E15.32031
G1 X26.580 Y20.483 E15.36973
G1 X25.534 Y21.779 E15.41915
G1 X24.424 Y23.020 E15.46859
G1 X23.253 Y24.202 E15.51800
G1 X22.023 Y25.324 E15.56743
G1 X20.738 Y26.382 E15.61685
G1 X19.401 Y27.374 E15.66628
G1 X18.016 Y28.297 E15.71570
G1 X16.304 Y29.305 E15.77469
G1 X14.825 Y30.068 E15.82411
G1 X13.309 Y30.756 E15.87354
G1 X11.760 Y31.366 E15.92296
G1 X10.182 Y31.897 E15.97239
G1 X8.579 Y32.347 E16.02181
G1 X6.956 Y32.715 E16.07124
G1 X5.316 Y33.001 E16.12066
G1 X3.664 Y33.203 E16.17009
G1 X2.003 Y33.321 E16.21951
G1 X0.339 Y33.355 E16.26894
G1 X-1.003 Y33.321 E16.30880
G1 X-2.664 Y33.203 E16.35823
G1 X-4.317 Y33.000 E16.40767
G1 X-5.956 Y32.715 E16.45708
G1 X-7.580 Y32.346 E16.50651
G1 X-9.182 Y31.896 E16.55593
G1 X-10.760 Y31.366 E16.60536
G1 X-12.309 Y30.756 E16.65479
G1 X-13.825 Y30.068 E16.70420
G1 X-15.304 Y29.305 E16.75363
G1 X-16.743 Y28.467 E16.80307
G1 X-18.137 Y27.558 E16.85249
G1 X-19.483 Y26.580 E16.90191
G1 X-20.779 Y25.534 E16.95133
G1 X-22.020 Y24.424 E17.00077
G1 X-23.202 Y23.253 E17.05019
G1 X-24.324 Y22.023 E17.09961
G1 X-25.382 Y20.738 E17.14903
G1 X-26.374 Y19.401 E17.19846
G1 X-27.297 Y18.015 E17.24789
G1 X-28.149 Y16.585 E17.29731
G1 X-28.926 Y15.114 E17.34673
G1 X-29.629 Y13.605 E17.39616
G1 X-30.247 Y12.080 E17.44501
G1 X-30.897 Y10.182 E17.50457
G1 X-31.347 Y8.579 E17.55399
G1 X-31.715 Y6.956 E17.60342
G1 X-32.001 Y5.316 E17.65284
G1 X-32.203 Y3.664 E17.70227
G1 X-32.321 Y2.003 E17.75169
G1 X-32.355 Y0.339 E17.80112
G1 X-32.305 Y-1.325 E17.85054
G1 X-32.170 Y-2.984 E17.89997
G1 X-32.001 Y-4.316 E17.93983
G1 X-31.715 Y-5.956 E17.98927
G1 X-31.346 Y-7.580 E18.03869
G1 X-30.896 Y-9.182 E18.08811
G1 X-30.366 Y-10.760 E18.13754
G1 X-29.756 Y-12.309 E18.18697
G1 X-29.068 Y-13.825 E18.23638
G1 X-28.305 Y-15.304 E18.28581
G1 X-27.467 Y-16.743 E18.33524
G1 X-26.558 Y-18.137 E18.38466
G1 X-25.580 Y-19.483 E18.43408
G1 X-24.534 Y-20.779 E18.48351
G1 X-23.424 Y-22.019 E18.53293
G1 X-22.295 Y-23.160 E18.58058
G1 E16.58058 F2400.00000
G1 X-8.288 Y-4.324 F7800.000
G1 E18.58058 F2400.00000
G1 F1800
G1 X9.288 Y-4.324 E19.10244
G1 X9.288 Y13.252 E19.62431
G1 X-8.288 Y13.252 E20.14617
G1 X-8.288 Y-4.264 E20.66625
G1 X-7.931 Y-3.967 F7800.000
G1 F1800
G1 X8.931 Y-3.967 E21.16691
G1 X8.931 Y12.895 E21.66757
G1 X-7.931 Y12.895 E22.16823
G1 X-7.931 Y-3.907 E22.66711
G1 X-7.574 Y-3.610 F7800.000
G1 F1800
G1 X8.574 Y-3.610 E23.14656
G1 X8.574 Y12.538 E23.62602
G1 X-7.574 Y12.538 E24.10547
G1 X-7.574 Y-3.550 E24.58315
G1 X-7.678 Y-3.996 F7800.000
G1 E22.58315 F2400.00000
G1 X-20.157 Y-14.583 F7800.000
G1 E24.58315 F2400.00000
G1 F1800
G1 X-19.744 Y-15.146 E24.60389
G1 X-18.913 Y-16.166 E24.64295
G1 X-18.044 Y-17.128 E24.68143
G1 X-17.128 Y-18.044 E24.71992
G1 X-16.166 Y-18.913 E24.75841
G1 X-15.161 Y-19.732 E24.79690
G1 X-14.116 Y-20.500 E24.83538
G1 X-13.034 Y-21.213 E24.87387
G1 X-11.917 Y-21.871 E24.91236
G1 X-10.768 Y-22.471 E24.95085
G1 X-9.590 Y-23.012 E24.98934
G1 X-8.386 Y-23.493 E25.02783
G1 X-7.159 Y-23.912 E25.06632
G1 X-5.913 Y-24.269 E25.10481
G1 X-4.650 Y-24.562 E25.14330
G1 X-3.374 Y-24.791 E25.18178
G1 X-2.088 Y-24.954 E25.22027
G1 X-0.796 Y-25.053 E25.25876
G1 X0.500 Y-25.086 E25.29725
G1 X1.777 Y-25.053 E25.33518
G1 X3.089 Y-24.954 E25.37424
G1 X4.374 Y-24.791 E25.41272
G1 X5.650 Y-24.562 E25.45121
G1 X6.913 Y-24.269 E25.48969
G1 X8.159 Y-23.912 E25.52818
G1 X9.386 Y-23.493 E25.56667
G1 X10.590 Y-23.012 E25.60516
G1 X11.768 Y-22.471 E25.64365
G1 X12.917 Y-21.871 E25.68214
G1 X14.034 Y-21.213 E25.72063
G1 X15.116 Y-20.500 E25.75912
G1 X16.161 Y-19.732 E25.79761
G1 X17.166 Y-18.913 E25.83610
G1 X18.128 Y-18.044 E25.87458
G1 X19.044 Y-17.128 E25.91307
G1 X19.913 Y-16.166 E25.95156
G1 X20.732 Y-15.161 E25.99005
G1 X21.500 Y-14.116 E26.02854
G1 X22.213 Y-13.034 E26.06703
G1 X22.871 Y-11.917 E26.10552
G1 X23.471 Y-10.768 E26.14401
G1 X24.012 Y-9.590 E26.18250
G1 X24.493 Y-8.386 E26.22098
G1 X24.912 Y-7.159 E26.25947
G1 X25.269 Y-5.913 E26.29796
G1 X25.562 Y-4.650 E26.33645
G1 X25.791 Y-3.374 E26.37494
G1 X25.954 Y-2.088 E26.41343
G1 X26.053 Y-0.796 E26.45192
G1 X26.086 Y0.500 E26.49041
G1 X26.053 Y1.796 E26.52890
G1 X25.954 Y3.088 E26.56738
G1 X25.791 Y4.374 E26.60587
G1 X25.562 Y5.650 E26.64436
G1 X25.269 Y6.913 E26.68285
G1 X24.912 Y8.159 E26.72134
G1 X24.493 Y9.386 E26.75983
G1 X24.012 Y10.590 E26.79832
G1 X23.479 Y11.751 E26.83625
G1 X22.870 Y12.917 E26.87530
G1 X22.213 Y14.034 E26.91378
G1 X21.500 Y15.116 E26.95227
G1 X20.732 Y16.161 E26.99076
G1 X19.913 Y17.166 E27.02925
G1 X19.044 Y18.128 E27.06774
G1 X18.128 Y19.044 E27.10623
G1 X17.166 Y19.913 E27.14472
G1 X16.161 Y20.732 E27.18321
G1 X15.116 Y21.500 E27.22169
G1 X14.034 Y22.213 E27.26018
G1 X12.917 Y22.871 E27.29867
G1 X11.768 Y23.471 E27.33716
G1 X10.590 Y24.012 E27.37565
G1 X9.386 Y24.493 E27.41414
G1 X8.159 Y24.912 E27.45263
G1 X6.913 Y25.269 E27.49112
G1 X5.650 Y25.562 E27.52961
G1 X4.374 Y25.791 E27.56810
G1 X3.088 Y25.954 E27.60658
G1 X1.796 Y26.053 E27.64507
G1 X0.500 Y26.086 E27.68356
G1 X-0.796 Y26.053 E27.72205
G1 X-2.088 Y25.954 E27.76054
G1 X-3.374 Y25.791 E27.79903
G1 X-4.650 Y25.562 E27.83752
G1 X-5.913 Y25.269 E27.87601
G1 X-7.159 Y24.912 E27.91450
G1 X-8.386 Y24.493 E27.95298
G1 X-9.590 Y24.012 E27.99147
G1 X-10.751 Y23.479 E28.02940
G1 X-11.917 Y22.870 E28.06846
G1 X-13.034 Y22.213 E28.10694
G1 X-14.116 Y21.500 E28.14543
G1 X-15.161 Y20.732 E28.18392
G1 X-16.166 Y19.913 E28.22241
G1 X-17.128 Y19.044 E28.26089
G1 X-18.044 Y18.128 E28.29938
G1 X-18.913 Y17.166 E28.33787
G1 X-19.732 Y16.161 E28.37636
G1 X-20.500 Y15.116 E28.41485
G1 X-21.213 Y14.034 E28.45334
G1 X-21.871 Y12.917 E28.49183
G1 X-22.471 Y11.768 E28.53032
G1 X-23.012 Y10.590 E28.56881
G1 X-23.493 Y9.386 E28.60729
G1 X-23.912 Y8.159 E28.64578
